%
(PokerTop)
(Machine)
(  vendor Tormach)
(  model 770M)
(  description Tormach 770M)
(T10 D=1.587 CR=0. - ZMIN=-5.8 - flat end mill)
(T11 D=3.175 CR=0. - ZMIN=-5.8 - flat end mill)
(T16 D=3.175 CR=1.587 - ZMIN=-4.303 - ball end mill)
G90 G54 G50 G17 G40 G80 G94 G91.1 G49
G21 (Metric)
G30

N10 (Adaptive3)
T11 G43 H11 M6
S7500 M3 M8
G17 G90 G94
G54
M59 L5
G0 X77.635 Y-51.566
G0 Z15.
G0 Z5.
G0 Z3.01
G3 X76.303 Y-49.18 Z2.897 I-1.434 J0.764 F254.
G3 X74.684 Y-51.378 Z2.783 I-0.102 J-1.62
G3 X77.352 Y-51.94 Z2.67 I1.515 J0.578
G3 X76.759 Y-49.282 Z2.557 I-1.152 J1.138
G3 X74.588 Y-50.92 Z2.443 I-0.558 J-1.518
G3 X76.976 Y-52.216 Z2.33 I1.611 J0.12
G3 X77.166 Y-49.51 Z2.216 I-0.776 J1.414
G3 X74.627 Y-50.456 Z2.103 I-0.965 J-1.29
G3 X76.538 Y-52.373 Z1.99 I1.572 J-0.343
G3 X77.49 Y-49.843 Z1.876 I-0.338 J1.571
G3 X74.796 Y-50.024 Z1.763 I-1.288 J-0.957
G3 X76.075 Y-52.398 Z1.65 I1.403 J-0.775
G3 X77.704 Y-50.253 Z1.536 I0.124 J1.596
G3 X75.081 Y-49.66 Z1.423 I-1.503 J-0.547
G3 X75.626 Y-52.29 Z1.309 I1.119 J-1.14
G3 X77.792 Y-50.706 Z1.196 I0.573 J1.489
G3 X75.456 Y-49.393 Z1.083 I-1.59 J-0.095
G3 X75.228 Y-52.059 Z0.969 I0.744 J-1.407
G3 X77.747 Y-51.163 Z0.856 I0.971 J1.259
G3 X75.89 Y-49.244 Z0.743 I-1.546 J0.362
G3 X74.914 Y-51.726 Z0.629 I0.31 J-1.555
G3 X77.573 Y-51.587 Z0.516 I1.285 J0.925
G3 X76.347 Y-49.227 Z0.402 I-1.373 J0.785
G3 X74.709 Y-51.318 Z0.289 I-0.146 J-1.573
G3 X77.287 Y-51.942 Z0.176 I1.49 J0.518
G3 X76.788 Y-49.34 Z0.062 I-1.087 J1.14
G3 X74.629 Y-50.87 Z-0.051 I-0.587 J-1.46
G3 X76.913 Y-52.2 Z-0.164 I1.57 J0.07
G3 X77.177 Y-49.573 Z-0.278 I-0.713 J1.398
G3 X74.68 Y-50.42 Z-0.391 I-0.976 J-1.227
G3 X76.483 Y-52.339 Z-0.504 I1.519 J-0.38
G3 X77.482 Y-49.907 Z-0.618 I-0.283 J1.538
G3 X74.857 Y-50.005 Z-0.731 I-1.281 J-0.894
G3 X76.032 Y-52.35 Z-0.845 I1.342 J-0.795
G3 X77.678 Y-50.312 Z-0.958 I0.167 J1.549
G3 X75.145 Y-49.659 Z-1.071 I-1.477 J-0.489
G3 X75.599 Y-52.232 Z-1.185 I1.055 J-1.141
G3 X77.75 Y-50.755 Z-1.298 I0.6 J1.431
G3 X75.517 Y-49.41 Z-1.411 I-1.549 J-0.046
G3 X75.219 Y-51.996 Z-1.525 I0.683 J-1.389
G3 X77.693 Y-51.198 Z-1.638 I0.98 J1.195
G3 X75.944 Y-49.279 Z-1.752 I-1.492 J0.397
G3 X74.923 Y-51.663 Z-1.865 I0.257 J-1.52
G3 X77.512 Y-51.605 Z-1.978 I1.276 J0.862
G3 X76.388 Y-49.275 Z-2.092 I-1.312 J0.803
G3 X74.736 Y-51.26 Z-2.205 I-0.188 J-1.524
G3 X77.224 Y-51.941 Z-2.318 I1.463 J0.46
G3 X76.814 Y-49.398 Z-2.432 I-1.024 J1.14
G3 X74.671 Y-50.822 Z-2.545 I-0.613 J-1.402
G3 X76.853 Y-52.181 Z-2.658 I1.528 J0.023
G3 X77.185 Y-49.636 Z-2.772 I-0.653 J1.379
G3 X74.734 Y-50.386 Z-2.885 I-0.984 J-1.164
G3 X76.43 Y-52.304 Z-2.999 I1.465 J-0.413
G3 X77.472 Y-49.969 Z-3.112 I-0.231 J1.503
G3 X74.919 Y-49.988 Z-3.225 I-1.27 J-0.831
G3 X75.992 Y-52.301 Z-3.339 I1.281 J-0.811
G3 X77.65 Y-50.369 Z-3.452 I0.207 J1.5
G3 X75.208 Y-49.66 Z-3.565 I-1.449 J-0.432
G3 X75.574 Y-52.174 Z-3.679 I0.992 J-1.139
G3 X77.707 Y-50.801 Z-3.792 I0.625 J1.373
G3 X74.691 I-1.508 J0.
G3 X77.707 I1.508 J0.
G1 X77.724 Y-50.159 F381.
G1 X77.737 Y-50.08
G1 X77.742 Y-49.93
G1 X77.719 Y-49.782
G1 X77.674 Y-49.639
G1 X77.609 Y-49.503
G1 X77.529 Y-49.376
G1 X77.435 Y-49.259
G1 X77.33 Y-49.153
G1 X77.215 Y-49.057
G1 X77.091 Y-48.972
G1 X76.96 Y-48.898
G1 X76.823 Y-48.837
G1 X76.682 Y-48.786
G1 X76.537 Y-48.748
G1 X76.389 Y-48.721
G1 X76.24 Y-48.706
G1 X76.09 Y-48.703
G1 X75.94 Y-48.711
G1 X75.792 Y-48.731
G1 X75.645 Y-48.761
G1 X75.501 Y-48.803
G1 X75.36 Y-48.855
G1 X75.223 Y-48.917
G1 X75.092 Y-48.989
G1 X74.966 Y-49.07
G1 X74.846 Y-49.16
G1 X74.732 Y-49.258
G1 X74.627 Y-49.364
G1 X74.529 Y-49.478
G1 X74.439 Y-49.598
G1 X74.358 Y-49.725
G1 X74.286 Y-49.856
G1 X74.224 Y-49.993
G1 X74.172 Y-50.134
G1 X74.13 Y-50.277
G1 X74.098 Y-50.424
G1 X74.076 Y-50.572
G1 X74.065 Y-50.722
G1 X74.064 Y-50.872
G1 X74.074 Y-51.022
G1 X74.095 Y-51.17
G1 X74.126 Y-51.317
G1 X74.167 Y-51.461
G1 X74.218 Y-51.602
G1 X74.279 Y-51.739
G1 X74.35 Y-51.872
G1 X74.429 Y-51.999
G1 X74.518 Y-52.12
G1 X74.614 Y-52.235
G1 X74.719 Y-52.342
G1 X74.831 Y-52.443
G1 X74.949 Y-52.534
G1 X75.074 Y-52.618
G1 X75.204 Y-52.692
G1 X75.339 Y-52.758
G1 X75.478 Y-52.813
G1 X75.621 Y-52.859
G1 X75.767 Y-52.894
G1 X75.915 Y-52.919
G1 X76.064 Y-52.934
G1 X76.214 Y-52.938
G1 X76.364 Y-52.932
G1 X76.513 Y-52.915
G1 X76.66 Y-52.888
G1 X76.806 Y-52.851
G1 X76.948 Y-52.803
G1 X77.087 Y-52.745
G1 X77.221 Y-52.678
G1 X77.35 Y-52.602
G1 X77.473 Y-52.517
G1 X77.591 Y-52.423
G1 X77.701 Y-52.322
G1 X77.804 Y-52.213
G1 X77.899 Y-52.097
G1 X77.986 Y-51.974
G1 X78.064 Y-51.846
G1 X78.136 Y-51.706
G1 X78.214 Y-51.528
G1 X78.31 Y-51.263
G1 X78.381 Y-51.018
G1 X78.425 Y-50.82
G1 X78.452 Y-50.647
G1 X78.468 Y-50.475
G1 X78.472 Y-50.322
G1 X78.467 Y-50.169
G1 X78.452 Y-50.02
G1 X78.427 Y-49.872
G1 X78.393 Y-49.726
G1 X78.348 Y-49.583
G1 X78.294 Y-49.443
G1 X78.231 Y-49.307
G1 X78.158 Y-49.175
G1 X78.077 Y-49.049
G1 X77.987 Y-48.929
G1 X77.89 Y-48.815
G1 X77.785 Y-48.708
G1 X77.673 Y-48.607
G1 X77.556 Y-48.515
G1 X77.43 Y-48.429
G1 X77.297 Y-48.349
G1 X77.159 Y-48.278
G1 X77.017 Y-48.217
G1 X76.87 Y-48.163
G1 X76.716 Y-48.119
G1 X76.557 Y-48.084
G1 X76.395 Y-48.058
G1 X76.233 Y-48.044
G1 X76.117 Y-48.041
G1 X76.086 Y-48.042
G1 X76.055 Y-48.044
G1 X75.981 Y-48.049
G1 X75.835 Y-48.061
G1 X75.689 Y-48.086
G1 X75.612 Y-48.102
G1 X75.398 Y-48.152
G1 X75.252 Y-48.205
G1 X75.137 Y-48.248
G1 X75.106 Y-48.261
G1 X74.96 Y-48.347
G1 X74.668 Y-48.527
G1 X74.474 Y-48.647
G1 X74.449 Y-48.664
G1 X74.425 Y-48.685
G1 X74.085 Y-49.015
G1 X74.003 Y-49.123
G1 X73.939 Y-49.223
G1 X73.744 Y-49.56
G1 X73.663 Y-49.706
G1 X73.61 Y-49.852
G1 X73.56 Y-49.998
G1 X73.501 Y-50.214
G1 X73.486 Y-50.29
G1 X73.442 Y-50.654
G1 X73.438 Y-50.691
G1 Y-50.727
G1 X73.466 Y-51.165
G1 X73.473 Y-51.237
G1 X73.492 Y-51.31
G1 X73.61 Y-51.748
G1 X73.626 Y-51.793
G1 X73.647 Y-51.839
G1 X73.828 Y-52.185
G1 X73.906 Y-52.331
G1 X73.939 Y-52.374
G1 X74.275 Y-52.769
G1 X74.326 Y-52.822
G1 X74.377 Y-52.862
G1 X74.814 Y-53.183
G1 X74.854 Y-53.206
G1 X74.96 Y-53.252
G1 X75.398 Y-53.438
G1 X75.544 Y-53.471
G1 X75.981 Y-53.549
G1 X76.018 Y-53.554
G1 X76.054 Y-53.555
G1 X76.565 Y-53.537
G1 X76.638 Y-53.53
G1 X76.767 Y-53.498
G1 X77.227 Y-53.352
G1 X77.294 Y-53.329
G1 X77.44 Y-53.25
G1 X77.779 Y-53.06
G1 X77.878 Y-53.
G1 X77.977 Y-52.915
G1 X78.143 Y-52.769
G1 X78.315 Y-52.578
G1 X78.403 Y-52.477
G1 X78.495 Y-52.331
G1 X78.641 Y-52.095
G1 X78.67 Y-52.04
G1 X78.899 Y-51.393
G1 X78.91 Y-51.352
G1 X78.941 Y-51.165
G1 X78.952 Y-51.019
G1 X78.96 Y-50.873
G1 X78.959 Y-50.727
G1 X78.95 Y-50.581
G1 X78.936 Y-50.435
G1 X78.917 Y-50.29
G1 X78.911 Y-50.248
G1 X78.899 Y-50.205
G1 X78.753 Y-49.765
G1 X78.732 Y-49.706
G1 X78.65 Y-49.56
G1 X78.461 Y-49.235
G1 X78.39 Y-49.123
G1 X78.315 Y-49.019
G1 X78.274 Y-48.977
G1 X78.023 Y-48.727
G1 X77.98 Y-48.685
G1 X77.878 Y-48.611
G1 X77.764 Y-48.54
G1 X77.44 Y-48.352
G1 X77.294 Y-48.271
G1 X77.227 Y-48.248
G1 X76.778 Y-48.102
G1 X76.711 Y-48.089
G1 X76.565 Y-48.067
G1 X76.419 Y-48.051
G1 X76.273 Y-48.039
G1 X76.127
G1 X76.055 Y-48.044
G3 X75.771 Y-48.362 I0.034 J-0.316
G1 X75.785 Y-48.415 Z-3.787
G1 X75.799 Y-48.466 Z-3.773
G1 X75.811 Y-48.514 Z-3.75
G1 X75.845 Y-48.549 Z-3.715
G1 X75.874 Y-48.58 Z-3.67
G1 X75.896 Y-48.603 Z-3.619
G1 X75.911 Y-48.619 Z-3.563
G1 X75.919 Y-48.627 Z-3.503
G1 X75.92 Y-48.628 Z-3.475
G0 Z5.
G0 X76.241 Y-50.031
G0 Z-2.047
G1 Z-2.365 F381.
G1 X76.246 Y-50.025 Z-2.435
G1 X76.262 Y-50.008 Z-2.502
G1 X76.288 Y-49.98 Z-2.563
G1 X76.322 Y-49.943 Z-2.613
G1 X76.363 Y-49.899 Z-2.651
G1 X76.408 Y-49.85 Z-2.674
G1 X76.456 Y-49.798 Z-2.682
G3 X77.496 Y-48.395 I-5.955 J5.5
G1 X77.517 Y-48.356
G1 X77.508 Y-48.324
G1 X77.489 Y-48.297
G1 X77.463 Y-48.277
G1 X77.409 Y-48.248
G1 X77.294 Y-48.188
G1 X77.002 Y-48.088
G1 X76.856 Y-48.047
G1 X76.711 Y-48.014
G1 X76.273 Y-47.966
G1 X76.2 Y-47.96
G1 X76.127 Y-47.965
G1 X75.981 Y-47.975
G1 X75.835 Y-47.991
G1 X75.689 Y-48.01
G1 X75.544 Y-48.042
G1 X75.398 Y-48.08
G1 X75.106 Y-48.181
G1 X74.96 Y-48.26
G1 X74.668 Y-48.421
G1 X74.377 Y-48.586
G1 X74.194 Y-48.685
G1 X74.085 Y-48.743
G1 X73.939 Y-48.814
G1 X73.9 Y-48.831
G1 X73.868 Y-48.845
G1 X73.827 Y-48.862
G1 X73.697 Y-48.955
G1 X73.608 Y-49.086
G1 X73.568 Y-49.24
G3 X73.815 Y-49.639 Z-2.482 I0.415 J-0.018
G3 X74.377 Y-49.39 I0.168 J0.38
G3 X74.285 Y-48.968 I-0.4 J0.133
G3 X73.827 Y-48.862 Z-2.682 I-0.308 J-0.288
G1 X73.757 Y-48.892
G1 X73.722 Y-48.912
G1 X73.686 Y-48.94
G1 X73.647 Y-48.981
G1 X73.623 Y-49.017
G1 X73.602 Y-49.052
G1 X73.587 Y-49.087
G1 X73.577 Y-49.123
G1 X73.554 Y-49.415
G1 X73.539 Y-49.56
G1 X73.516 Y-49.706
G1 X73.469 Y-49.998
G1 X73.443 Y-50.144
G1 X73.416 Y-50.29
G1 X73.394 Y-50.435
G1 X73.375 Y-50.581
G1 X73.362 Y-50.727
G1 X73.357 Y-50.8
G1 X73.363 Y-50.873
G1 X73.417 Y-51.31
G1 X73.469 Y-51.602
G1 X73.516 Y-51.894
G1 X73.539 Y-52.04
G1 X73.554 Y-52.185
G1 X73.565 Y-52.331
G1 X73.569 Y-52.375
G1 X73.571 Y-52.406
G1 X73.574 Y-52.428
G1 X73.588 Y-52.495
G1 X73.613 Y-52.559
G1 X73.647 Y-52.619
G3 X74.047 Y-52.726 Z-2.506 I0.277 J0.236
G1 X74.1 Y-52.701 Z-2.482
G3 X73.851 Y-52.043 I-0.173 J0.311
G1 X73.849 Z-2.483
G3 X73.571 Y-52.406 Z-2.682 I0.078 J-0.347
G1 X73.577 Y-52.477
G1 X73.587 Y-52.513
G1 X73.602 Y-52.548
G1 X73.623 Y-52.583
G1 X73.65 Y-52.623
G1 X73.686 Y-52.66
G1 X73.722 Y-52.688
G1 X73.757 Y-52.708
G1 X73.9 Y-52.769
G1 X73.939 Y-52.786
G1 X74.085 Y-52.857
G1 X74.231 Y-52.934
G1 X74.377 Y-53.014
G1 X74.522 Y-53.097
G1 X74.707 Y-53.206
G1 X74.887 Y-53.313
G1 X74.96 Y-53.345
G1 X75.252 Y-53.456
G1 X75.398 Y-53.515
G1 X75.434 Y-53.527
G1 X75.471 Y-53.535
G1 X75.981 Y-53.621
G1 X76.054 Y-53.631
G1 X76.127 Y-53.628
G1 X76.638 Y-53.605
G1 X76.711 Y-53.593
G1 X76.856 Y-53.558
G1 X77.002 Y-53.519
G1 X77.294 Y-53.423
G1 X77.44 Y-53.344
G1 X77.878 Y-53.097
G1 X78.023 Y-53.014
G1 X78.206 Y-52.915
G1 X78.315 Y-52.857
G1 X78.461 Y-52.786
G1 X78.5 Y-52.769
G1 X78.532 Y-52.755
G1 X78.573 Y-52.738
G1 X78.703 Y-52.645
G1 X78.792 Y-52.514
G1 X78.832 Y-52.36
G3 X78.585 Y-51.961 Z-2.482 I-0.415 J0.018
G3 X78.023 Y-52.21 I-0.167 J-0.38
G3 X78.115 Y-52.632 I0.4 J-0.133
G3 X78.573 Y-52.738 Z-2.682 I0.308 J0.288
G1 X78.643 Y-52.708
G1 X78.678 Y-52.688
G1 X78.714 Y-52.66
G1 X78.753 Y-52.619
G1 X78.777 Y-52.583
G1 X78.798 Y-52.548
G1 X78.813 Y-52.513
G1 X78.823 Y-52.477
G1 X78.846 Y-52.185
G1 X78.861 Y-52.04
G1 X78.884 Y-51.894
G1 X78.931 Y-51.602
G1 X78.957 Y-51.456
G1 X79.012 Y-51.165
G1 X79.031 Y-51.019
G1 X79.035 Y-50.873
G1 X79.038 Y-50.654
G1 X79.03 Y-50.581
G1 X78.952 Y-50.144
G1 X78.929 Y-49.998
G1 X78.899 Y-49.796
G1 X78.884 Y-49.706
G1 X78.861 Y-49.56
G1 X78.846 Y-49.415
G1 X78.835 Y-49.269
G1 X78.831 Y-49.225
G1 X78.829 Y-49.194
G1 X78.826 Y-49.172
G1 X78.812 Y-49.105
G1 X78.787 Y-49.041
G1 X78.753 Y-48.981
G3 X78.353 Y-48.874 Z-2.506 I-0.277 J-0.236
G1 X78.3 Y-48.899 Z-2.482
G3 X78.549 Y-49.557 I0.173 J-0.311
G1 X78.551 Z-2.483
G3 X78.829 Y-49.194 Z-2.682 I-0.078 J0.347
G1 X78.823 Y-49.123
G1 X78.813 Y-49.087
G1 X78.798 Y-49.052
G1 X78.777 Y-49.017
G1 X78.75 Y-48.977
G1 X78.714 Y-48.94
G1 X78.678 Y-48.912
G1 X78.643 Y-48.892
G1 X78.5 Y-48.831
G1 X78.461 Y-48.814
G1 X78.315 Y-48.743
G1 X78.169 Y-48.666
G1 X78.023 Y-48.586
G1 X77.878 Y-48.503
G1 X77.679 Y-48.394
G1 X77.463 Y-48.277
G3 X77.052 Y-48.394 I-0.141 J-0.284
G1 X77.036 Y-48.445 Z-2.677
G1 X77.02 Y-48.496 Z-2.663
G1 X77.005 Y-48.543 Z-2.64
G1 X77.004 Y-48.561 Z-2.628
G1 X77.015 Y-48.608 Z-2.589
G1 X77.023 Y-48.646 Z-2.541
G1 X77.03 Y-48.674 Z-2.486
G1 X77.034 Y-48.692 Z-2.427
G1 X77.035 Y-48.698 Z-2.365
G0 Z5.
G0 X44.443 Y-74.125
G0 Z3.01
G3 X42.239 Y-72.7 Z2.902 I-1.573 J-0.015 F254.
G3 X41.795 Y-75.284 Z2.793 I0.631 J-1.438
G3 X44.343 Y-74.678 Z2.685 I1.074 J1.144
G3 X42.787 Y-72.576 Z2.576 I-1.472 J0.538
G3 X41.466 Y-74.83 Z2.468 I0.084 J-1.563
G3 X44.054 Y-75.159 Z2.359 I1.403 J0.69
G3 X43.341 Y-72.652 Z2.251 I-1.184 J1.018
G3 X41.319 Y-74.291 Z2.143 I-0.47 J-1.487
G3 X43.617 Y-75.505 Z2.034 I1.55 J0.151
G3 X43.831 Y-72.918 Z1.926 I-0.747 J1.364
G3 X41.371 Y-73.736 Z1.817 I-0.96 J-1.221
G3 X43.087 Y-75.675 Z1.709 I1.499 J-0.403
G3 X44.195 Y-73.338 Z1.6 I-0.218 J1.534
G3 X41.614 Y-73.237 Z1.492 I-1.324 J-0.802
G3 X42.534 Y-75.648 Z1.384 I1.256 J-0.901
G3 X44.387 Y-73.857 Z1.275 I0.335 J1.507
G3 X42.015 Y-72.857 Z1.167 I-1.516 J-0.283
G3 X42.027 Y-75.428 Z1.058 I0.855 J-1.281
G3 X44.384 Y-74.408 Z0.95 I0.841 J1.288
G3 X42.523 Y-72.644 Z0.841 I-1.513 J0.268
G3 X41.632 Y-75.046 Z0.733 I0.348 J-1.495
G3 X44.188 Y-74.921 Z0.625 I1.237 J0.906
G3 X43.071 Y-72.623 Z0.516 I-1.317 J0.78
G3 X41.398 Y-74.55 Z0.408 I-0.2 J-1.516
G3 X43.824 Y-75.331 Z0.299 I1.471 J0.411
G3 X43.59 Y-72.796 Z0.191 I-0.954 J1.19
G3 X41.353 Y-74.006 Z0.082 I-0.719 J-1.343
G3 X43.342 Y-75.585 Z-0.026 I1.516 J-0.133
G3 X44.012 Y-73.139 Z-0.134 I-0.472 J1.444
G3 X41.503 Y-73.483 Z-0.243 I-1.141 J-1.
G3 X42.803 Y-75.653 Z-0.351 I1.367 J-0.656
G3 X44.286 Y-73.608 Z-0.46 I0.066 J1.512
G3 X41.826 Y-73.048 Z-0.568 I-1.415 J-0.532
G3 X42.277 Y-75.527 Z-0.677 I1.044 J-1.091
G3 X44.377 Y-74.14 Z-0.785 I0.592 J1.387
G3 X41.361 I-1.508 J0.
G3 X44.377 I1.508 J0.
G1 X44.394 Y-73.498 F381.
G1 X44.407 Y-73.419
G1 X44.412 Y-73.269
G1 X44.389 Y-73.121
G1 X44.344 Y-72.978
G1 X44.279 Y-72.843
G1 X44.199 Y-72.716
G1 X44.105 Y-72.599
G1 X44. Y-72.492
G1 X43.885 Y-72.396
G1 X43.761 Y-72.311
G1 X43.63 Y-72.238
G1 X43.493 Y-72.176
G1 X43.352 Y-72.126
G1 X43.207 Y-72.088
G1 X43.059 Y-72.061
G1 X42.91 Y-72.046
G1 X42.76 Y-72.043
G1 X42.61 Y-72.051
G1 X42.462 Y-72.07
G1 X42.315 Y-72.101
G1 X42.171 Y-72.142
G1 X42.03 Y-72.194
G1 X41.893 Y-72.256
G1 X41.762 Y-72.328
G1 X41.636 Y-72.409
G1 X41.516 Y-72.499
G1 X41.402 Y-72.598
G1 X41.297 Y-72.704
G1 X41.199 Y-72.818
G1 X41.109 Y-72.938
G1 X41.028 Y-73.064
G1 X40.956 Y-73.196
G1 X40.894 Y-73.332
G1 X40.842 Y-73.473
G1 X40.8 Y-73.617
G1 X40.768 Y-73.764
G1 X40.746 Y-73.912
G1 X40.735 Y-74.062
G1 X40.734 Y-74.212
G1 X40.744 Y-74.361
G1 X40.765 Y-74.51
G1 X40.796 Y-74.657
G1 X40.837 Y-74.801
G1 X40.888 Y-74.942
G1 X40.949 Y-75.079
G1 X41.02 Y-75.211
G1 X41.099 Y-75.338
G1 X41.188 Y-75.46
G1 X41.284 Y-75.574
G1 X41.389 Y-75.682
G1 X41.501 Y-75.782
G1 X41.619 Y-75.874
G1 X41.744 Y-75.957
G1 X41.874 Y-76.032
G1 X42.009 Y-76.097
G1 X42.148 Y-76.153
G1 X42.291 Y-76.198
G1 X42.437 Y-76.234
G1 X42.585 Y-76.259
G1 X42.734 Y-76.274
G1 X42.884 Y-76.278
G1 X43.034 Y-76.271
G1 X43.183 Y-76.255
G1 X43.331 Y-76.227
G1 X43.476 Y-76.19
G1 X43.618 Y-76.142
G1 X43.757 Y-76.085
G1 X43.891 Y-76.018
G1 X44.02 Y-75.942
G1 X44.143 Y-75.856
G1 X44.261 Y-75.763
G1 X44.371 Y-75.661
G1 X44.474 Y-75.552
G1 X44.569 Y-75.436
G1 X44.656 Y-75.314
G1 X44.734 Y-75.186
G1 X44.806 Y-75.046
G1 X44.884 Y-74.867
G1 X44.98 Y-74.602
G1 X45.051 Y-74.357
G1 X45.095 Y-74.16
G1 X45.122 Y-73.986
G1 X45.138 Y-73.814
G1 X45.142 Y-73.661
G1 X45.137 Y-73.508
G1 X45.122 Y-73.359
G1 X45.097 Y-73.211
G1 X45.062 Y-73.065
G1 X45.018 Y-72.922
G1 X44.964 Y-72.782
G1 X44.901 Y-72.646
G1 X44.828 Y-72.515
G1 X44.747 Y-72.389
G1 X44.657 Y-72.268
G1 X44.56 Y-72.154
G1 X44.455 Y-72.047
G1 X44.343 Y-71.947
G1 X44.225 Y-71.854
G1 X44.1 Y-71.768
G1 X43.967 Y-71.688
G1 X43.829 Y-71.618
G1 X43.687 Y-71.556
G1 X43.539 Y-71.503
G1 X43.386 Y-71.458
G1 X43.227 Y-71.423
G1 X43.065 Y-71.398
G1 X42.903 Y-71.383
G1 X42.739 Y-71.379
G1 X42.573 Y-71.385
G1 X42.405 Y-71.403
G1 X42.238 Y-71.431
G1 X42.071 Y-71.47
G1 X41.907 Y-71.519
G1 X41.747 Y-71.579
G1 X41.59 Y-71.65
G1 X41.437 Y-71.73
G1 X41.289 Y-71.822
G1 X41.145 Y-71.923
G1 X41.008 Y-72.034
G1 X40.877 Y-72.154
G1 X40.755 Y-72.281
G1 X40.641 Y-72.417
G1 X40.536 Y-72.559
G1 X40.44 Y-72.707
G1 X40.353 Y-72.863
G1 X40.277 Y-73.024
G1 X40.21 Y-73.19
G1 X40.154 Y-73.361
G1 X40.109 Y-73.535
G1 X40.076 Y-73.713
G1 X40.053 Y-73.892
G1 X40.043 Y-74.071
G1 Y-74.251
G1 X40.055 Y-74.429
G1 X40.079 Y-74.607
G1 X40.114 Y-74.784
G1 X40.161 Y-74.958
G1 X40.218 Y-75.13
G1 X40.287 Y-75.298
G1 X40.366 Y-75.461
G1 X40.456 Y-75.619
G1 X40.555 Y-75.77
G1 X40.664 Y-75.915
G1 X40.781 Y-76.052
G1 X40.907 Y-76.181
G1 X41.04 Y-76.302
G1 X41.182 Y-76.414
G1 X41.33 Y-76.517
G1 X41.486 Y-76.611
G1 X41.647 Y-76.694
G1 X41.814 Y-76.768
G1 X41.985 Y-76.83
G1 X42.159 Y-76.881
G1 X42.336 Y-76.921
G1 X42.514 Y-76.95
G1 X42.694 Y-76.967
G1 X42.874 Y-76.972
G1 X43.054 Y-76.966
G1 X43.234 Y-76.948
G1 X43.414 Y-76.919
G1 X43.591 Y-76.879
G1 X43.765 Y-76.826
G1 X43.936 Y-76.763
G1 X44.102 Y-76.69
G1 X44.263 Y-76.605
G1 X44.418 Y-76.511
G1 X44.566 Y-76.408
G1 X44.706 Y-76.296
G1 X44.842 Y-76.172
G1 X44.976 Y-76.034
G1 X45.113 Y-75.872
G1 X45.243 Y-75.698
G1 X45.368 Y-75.506
G1 X45.482 Y-75.303
G1 X45.582 Y-75.095
G1 X45.668 Y-74.882
G1 X45.739 Y-74.67
G1 X45.794 Y-74.459
G1 X45.835 Y-74.249
G1 X45.862 Y-74.041
G1 X45.875 Y-73.836
G1 Y-73.633
G1 X45.863 Y-73.434
G1 X45.837 Y-73.238
G1 X45.8 Y-73.045
G1 X45.751 Y-72.857
G1 X45.69 Y-72.673
G1 X45.618 Y-72.494
G1 X45.534 Y-72.32
G1 X45.439 Y-72.152
G1 X45.334 Y-71.989
G1 X45.218 Y-71.834
G1 X45.092 Y-71.685
G1 X44.956 Y-71.544
G1 X44.811 Y-71.412
G1 X44.656 Y-71.288
G1 X44.494 Y-71.174
G1 X44.322 Y-71.07
G1 X44.143 Y-70.976
G1 X43.958 Y-70.894
G1 X43.766 Y-70.823
G1 X43.569 Y-70.764
G1 X43.367 Y-70.717
G1 X43.161 Y-70.684
G1 X42.952 Y-70.663
G1 X42.741 Y-70.656
G1 X42.528 Y-70.662
G1 X42.316 Y-70.682
G1 X42.104 Y-70.715
G1 X41.894 Y-70.763
G1 X41.686 Y-70.824
G1 X41.481 Y-70.898
G1 X41.28 Y-70.986
G1 X41.085 Y-71.087
G1 X40.896 Y-71.201
G1 X40.714 Y-71.327
G1 X40.541 Y-71.465
G1 X40.376 Y-71.613
G1 X40.22 Y-71.773
G1 X40.075 Y-71.942
G1 X39.94 Y-72.121
G1 X39.817 Y-72.309
G1 X39.706 Y-72.505
G1 X39.607 Y-72.708
G1 X39.521 Y-72.917
G1 X39.449 Y-73.131
G1 X39.391 Y-73.349
G1 X39.347 Y-73.571
G1 X39.317 Y-73.796
G1 X39.301 Y-74.022
G1 X39.3 Y-74.249
G1 X39.313 Y-74.476
G1 X39.341 Y-74.702
G1 X39.384 Y-74.926
G1 X39.441 Y-75.147
G1 X39.511 Y-75.364
G1 X39.596 Y-75.576
G1 X39.694 Y-75.782
G1 X39.805 Y-75.981
G1 X39.928 Y-76.173
G1 X40.063 Y-76.357
G1 X40.21 Y-76.531
G1 X40.368 Y-76.696
G1 X40.537 Y-76.851
G1 X40.715 Y-76.995
G1 X40.902 Y-77.127
G1 X41.097 Y-77.247
G1 X41.299 Y-77.354
G1 X41.508 Y-77.448
G1 X41.722 Y-77.528
G1 X41.94 Y-77.595
G1 X42.163 Y-77.647
G1 X42.388 Y-77.685
G1 X42.616 Y-77.708
G1 X42.845 Y-77.717
G1 X43.074 Y-77.712
G1 X43.302 Y-77.691
G1 X43.529 Y-77.656
G1 X43.752 Y-77.607
G1 X43.972 Y-77.543
G1 X44.188 Y-77.466
G1 X44.398 Y-77.375
G1 X44.603 Y-77.269
G1 X44.805 Y-77.149
G1 X45.002 Y-77.014
G1 X45.193 Y-76.864
G1 X45.378 Y-76.699
G1 X45.557 Y-76.517
G1 X45.727 Y-76.321
G1 X45.886 Y-76.111
G1 X46.033 Y-75.889
G1 X46.165 Y-75.659
G1 X46.283 Y-75.421
G1 X46.384 Y-75.177
G1 X46.469 Y-74.928
G1 X46.537 Y-74.677
G1 X46.588 Y-74.424
G1 X46.623 Y-74.171
G1 X46.642 Y-73.918
G1 X46.644 Y-73.666
G1 X46.63 Y-73.416
G1 X46.601 Y-73.17
G1 X46.556 Y-72.927
G1 X46.496 Y-72.688
G1 X46.421 Y-72.455
G1 X46.331 Y-72.227
G1 X46.227 Y-72.006
G1 X46.109 Y-71.792
G1 X45.978 Y-71.585
G1 X45.833 Y-71.387
G1 X45.676 Y-71.199
G1 X45.506 Y-71.02
G1 X45.325 Y-70.852
G1 X45.133 Y-70.696
G1 X44.93 Y-70.551
G1 X44.718 Y-70.419
G1 X44.496 Y-70.301
G1 X44.266 Y-70.196
G1 X44.029 Y-70.106
G1 X43.785 Y-70.031
G1 X43.536 Y-69.971
G1 X43.282 Y-69.927
G1 X43.025 Y-69.899
G1 X42.765 Y-69.888
G1 X42.504 Y-69.893
G1 X42.242 Y-69.916
G1 X41.982 Y-69.955
G1 X41.723 Y-70.011
G1 X41.467 Y-70.083
G1 X41.216 Y-70.172
G1 X40.97 Y-70.278
G1 X40.731 Y-70.399
G1 X40.499 Y-70.536
G1 X40.275 Y-70.688
G1 X40.062 Y-70.854
G1 X39.859 Y-71.034
G1 X39.667 Y-71.227
G1 X39.488 Y-71.433
G1 X39.321 Y-71.65
G1 X39.169 Y-71.877
G1 X39.031 Y-72.114
G1 X38.909 Y-72.36
G1 X38.803 Y-72.614
G1 X38.713 Y-72.874
G1 X38.639 Y-73.14
G1 X38.583 Y-73.41
G1 X38.544 Y-73.684
G1 X38.522 Y-73.959
G1 X38.519 Y-74.236
G1 X38.533 Y-74.513
G1 X38.565 Y-74.789
G1 X38.614 Y-75.062
G1 X38.681 Y-75.331
G1 X38.764 Y-75.596
G1 X38.865 Y-75.855
G1 X38.982 Y-76.107
G1 X39.115 Y-76.351
G1 X39.264 Y-76.587
G1 X39.427 Y-76.812
G1 X39.604 Y-77.027
G1 X39.795 Y-77.229
G1 X39.999 Y-77.42
G1 X40.214 Y-77.597
G1 X40.44 Y-77.759
G1 X40.676 Y-77.907
G1 X40.922 Y-78.04
G1 X41.175 Y-78.157
G1 X41.435 Y-78.257
G1 X41.701 Y-78.34
G1 X41.972 Y-78.406
G1 X42.246 Y-78.455
G1 X42.524 Y-78.486
G1 X42.802 Y-78.499
G1 X43.081 Y-78.495
G1 X43.359 Y-78.472
G1 X43.636 Y-78.432
G1 X43.909 Y-78.374
G1 X44.179 Y-78.299
G1 X44.446 Y-78.206
G1 X44.707 Y-78.095
G1 X44.964 Y-77.966
G1 X45.215 Y-77.819
G1 X45.46 Y-77.655
G1 X45.696 Y-77.473
G1 X45.923 Y-77.273
G1 X46.138 Y-77.058
G1 X46.341 Y-76.828
G1 X46.53 Y-76.584
G1 X46.703 Y-76.327
G1 X46.86 Y-76.059
G1 X47. Y-75.782
G1 X47.121 Y-75.496
G1 X47.224 Y-75.205
G1 X47.307 Y-74.908
G1 X47.371 Y-74.608
G1 X47.415 Y-74.306
G1 X47.44 Y-74.003
G1 X47.445 Y-73.701
G1 X47.431 Y-73.4
G1 X47.398 Y-73.102
G1 X47.346 Y-72.808
G1 X47.276 Y-72.518
G1 X47.187 Y-72.234
G1 X47.081 Y-71.956
G1 X46.957 Y-71.686
G1 X46.816 Y-71.424
G1 X46.658 Y-71.172
G1 X46.484 Y-70.93
G1 X46.295 Y-70.7
G1 X46.092 Y-70.481
G1 X45.874 Y-70.276
G1 X45.643 Y-70.084
G1 X45.399 Y-69.907
G1 X45.144 Y-69.746
G1 X44.878 Y-69.6
G1 X44.602 Y-69.472
G1 X44.318 Y-69.361
G1 X44.026 Y-69.268
G1 X43.728 Y-69.194
G1 X43.424 Y-69.139
G1 X43.116 Y-69.103
G1 X42.806 Y-69.087
G1 X42.493 Y-69.09
G1 X42.181 Y-69.114
G1 X41.869 Y-69.158
G1 X41.56 Y-69.222
G1 X41.255 Y-69.306
G1 X40.955 Y-69.41
G1 X40.661 Y-69.533
G1 X40.375 Y-69.674
G1 X40.098 Y-69.835
G1 X39.831 Y-70.013
G1 X39.575 Y-70.208
G1 X39.331 Y-70.42
G1 X39.102 Y-70.648
G1 X38.886 Y-70.89
G1 X38.687 Y-71.146
G1 X38.504 Y-71.415
G1 X38.338 Y-71.695
G1 X38.19 Y-71.986
G1 X38.061 Y-72.286
G1 X37.951 Y-72.594
G1 X37.861 Y-72.909
G1 X37.792 Y-73.229
G1 X37.743 Y-73.553
G1 X37.714 Y-73.88
G1 X37.707 Y-74.209
G1 X37.721 Y-74.538
G1 X37.756 Y-74.865
G1 X37.811 Y-75.189
G1 X37.888 Y-75.51
G1 X37.985 Y-75.825
G1 X38.101 Y-76.133
G1 X38.238 Y-76.433
G1 X38.393 Y-76.724
G1 X38.567 Y-77.005
G1 X38.758 Y-77.274
G1 X38.967 Y-77.531
G1 X39.191 Y-77.773
G1 X39.43 Y-78.001
G1 X39.684 Y-78.213
G1 X39.95 Y-78.409
G1 X40.229 Y-78.586
G1 X40.519 Y-78.746
G1 X40.818 Y-78.887
G1 X41.125 Y-79.009
G1 X41.44 Y-79.11
G1 X41.761 Y-79.192
G1 X42.086 Y-79.252
G1 X42.415 Y-79.292
G1 X42.745 Y-79.311
G1 X43.076 Y-79.308
G1 X43.407 Y-79.284
G1 X43.736 Y-79.239
G1 X44.062 Y-79.173
G1 X44.385 Y-79.086
G1 X44.704 Y-78.978
G1 X45.018 Y-78.848
G1 X45.325 Y-78.697
G1 X45.624 Y-78.526
G1 X45.914 Y-78.334
G1 X46.194 Y-78.123
G1 X46.461 Y-77.892
G1 X46.715 Y-77.643
G1 X46.953 Y-77.377
G1 X47.175 Y-77.095
G1 X47.379 Y-76.798
G1 X47.564 Y-76.489
G1 X47.729 Y-76.168
G1 X47.872 Y-75.838
G1 X47.995 Y-75.5
G1 X48.095 Y-75.155
G1 X48.172 Y-74.806
G1 X48.227 Y-74.453
G1 X48.259 Y-74.099
G1 X48.269 Y-73.744
G1 X48.255 Y-73.39
G1 X48.22 Y-73.039
G1 X48.161 Y-72.692
G1 X48.081 Y-72.349
G1 X47.98 Y-72.013
G1 X47.857 Y-71.684
G1 X47.713 Y-71.364
G1 X47.549 Y-71.054
G1 X47.366 Y-70.755
G1 X47.164 Y-70.468
G1 X46.943 Y-70.194
G1 X46.706 Y-69.935
G1 X46.451 Y-69.691
G1 X46.181 Y-69.463
G1 X45.896 Y-69.252
G1 X45.598 Y-69.06
G1 X45.287 Y-68.886
G1 X44.965 Y-68.733
G1 X44.632 Y-68.6
G1 X44.291 Y-68.488
G1 X43.942 Y-68.398
G1 X43.587 Y-68.33
G1 X43.227 Y-68.285
G1 X42.864 Y-68.263
G1 X42.499 Y-68.264
G1 X42.134 Y-68.289
G1 X41.77 Y-68.337
G1 X41.409 Y-68.408
G1 X41.052 Y-68.503
G1 X40.701 Y-68.621
G1 X40.357 Y-68.761
G1 X40.022 Y-68.924
G1 X39.698 Y-69.107
G1 X39.385 Y-69.312
G1 X39.085 Y-69.537
G1 X38.8 Y-69.781
G1 X38.531 Y-70.044
G1 X38.278 Y-70.323
G1 X38.043 Y-70.619
G1 X37.828 Y-70.929
G1 X37.632 Y-71.253
G1 X37.457 Y-71.59
G1 X37.304 Y-71.937
G1 X37.174 Y-72.294
G1 X37.066 Y-72.659
G1 X36.982 Y-73.03
G1 X36.922 Y-73.406
G1 X36.886 Y-73.786
G1 X36.874 Y-74.168
G1 X36.887 Y-74.549
G1 X36.924 Y-74.93
G1 X36.985 Y-75.307
G1 X37.071 Y-75.68
G1 X37.18 Y-76.047
G1 X37.312 Y-76.406
G1 X37.468 Y-76.756
G1 X37.645 Y-77.096
G1 X37.844 Y-77.424
G1 X38.064 Y-77.738
G1 X38.303 Y-78.038
G1 X38.561 Y-78.322
G1 X38.837 Y-78.589
G1 X39.129 Y-78.838
G1 X39.437 Y-79.067
G1 X39.758 Y-79.277
G1 X40.093 Y-79.465
G1 X40.439 Y-79.632
G1 X40.795 Y-79.776
G1 X41.16 Y-79.898
G1 X41.531 Y-79.995
G1 X41.908 Y-80.069
G1 X42.29 Y-80.118
G1 X42.674 Y-80.143
G1 X43.059 Y-80.144
G1 X43.444 Y-80.119
G1 X43.828 Y-80.07
G1 X44.209 Y-79.997
G1 X44.586 Y-79.898
G1 X44.959 Y-79.775
G1 X45.325 Y-79.628
G1 X45.682 Y-79.456
G1 X46.031 Y-79.26
G1 X46.368 Y-79.042
G1 X46.692 Y-78.801
G1 X47.002 Y-78.538
G1 X47.295 Y-78.255
G1 X47.571 Y-77.952
G1 X47.828 Y-77.631
G1 X48.064 Y-77.294
G1 X48.279 Y-76.942
G1 X48.47 Y-76.577
G1 X48.638 Y-76.201
G1 X48.782 Y-75.814
G1 X48.9 Y-75.42
G1 X48.992 Y-75.02
G1 X49.059 Y-74.615
G1 X49.099 Y-74.208
G1 X49.114 Y-73.799
G1 X49.102 Y-73.391
G1 X49.064 Y-72.986
G1 X49. Y-72.584
G1 X48.911 Y-72.188
G1 X48.797 Y-71.798
G1 X48.659 Y-71.417
G1 X48.496 Y-71.046
G1 X48.31 Y-70.686
G1 X48.101 Y-70.338
G1 X47.87 Y-70.004
G1 X47.618 Y-69.686
G1 X47.346 Y-69.383
G1 X47.054 Y-69.099
G1 X46.745 Y-68.833
G1 X46.418 Y-68.587
G1 X46.076 Y-68.362
G1 X45.719 Y-68.159
G1 X45.349 Y-67.979
G1 X44.968 Y-67.822
G1 X44.576 Y-67.69
G1 X44.176 Y-67.583
G1 X43.768 Y-67.502
G1 X43.355 Y-67.446
G1 X42.938 Y-67.417
G1 X42.519 Y-67.415
G1 X42.1 Y-67.44
G1 X41.682 Y-67.492
G1 X41.267 Y-67.57
G1 X40.857 Y-67.675
G1 X40.454 Y-67.806
G1 X40.059 Y-67.964
G1 X39.674 Y-68.146
G1 X39.3 Y-68.354
G1 X38.94 Y-68.585
G1 X38.595 Y-68.839
G1 X38.266 Y-69.116
G1 X37.955 Y-69.413
G1 X37.664 Y-69.73
G1 X37.392 Y-70.066
G1 X37.143 Y-70.419
G1 X36.916 Y-70.788
G1 X36.713 Y-71.171
G1 X36.534 Y-71.566
G1 X36.382 Y-71.973
G1 X36.255 Y-72.389
G1 X36.155 Y-72.812
G1 X36.083 Y-73.242
G1 X36.038 Y-73.675
G1 X36.02 Y-74.111
G1 X36.031 Y-74.547
G1 X36.07 Y-74.982
G1 X36.136 Y-75.414
G1 X36.23 Y-75.841
G1 X36.351 Y-76.261
G1 X36.499 Y-76.673
G1 X36.673 Y-77.075
G1 X36.873 Y-77.464
G1 X37.097 Y-77.841
G1 X37.344 Y-78.202
G1 X37.615 Y-78.547
G1 X37.907 Y-78.874
G1 X38.219 Y-79.182
G1 X38.55 Y-79.469
G1 X38.9 Y-79.734
G1 X39.265 Y-79.977
G1 X39.645 Y-80.195
G1 X40.039 Y-80.389
G1 X40.444 Y-80.557
G1 X40.86 Y-80.699
G1 X41.283 Y-80.815
G1 X41.713 Y-80.903
G1 X42.149 Y-80.963
G1 X42.587 Y-80.995
G1 X43.027 Y-80.999
G1 X43.468 Y-80.975
G1 X43.907 Y-80.923
G1 X44.344 Y-80.843
G1 X44.776 Y-80.734
G1 X45.202 Y-80.597
G1 X45.62 Y-80.433
G1 X46.029 Y-80.241
G1 X46.427 Y-80.022
G1 X46.812 Y-79.777
G1 X47.183 Y-79.507
G1 X47.536 Y-79.212
G1 X47.872 Y-78.894
G1 X48.187 Y-78.554
G1 X48.481 Y-78.194
G1 X48.751 Y-77.815
G1 X48.997 Y-77.419
G1 X49.218 Y-77.008
G1 X49.411 Y-76.583
G1 X49.577 Y-76.147
G1 X49.715 Y-75.702
G1 X49.823 Y-75.25
G1 X49.903 Y-74.792
G1 X49.953 Y-74.33
G1 X49.973 Y-73.867
G1 X49.964 Y-73.404
G1 X49.925 Y-72.943
G1 X49.857 Y-72.486
G1 X49.759 Y-72.035
G1 X49.633 Y-71.591
G1 X49.479 Y-71.156
G1 X49.298 Y-70.733
G1 X49.09 Y-70.322
G1 X48.856 Y-69.924
G1 X48.597 Y-69.543
G1 X48.314 Y-69.178
G1 X48.008 Y-68.833
G1 X47.679 Y-68.507
G1 X47.331 Y-68.202
G1 X46.962 Y-67.919
G1 X46.576 Y-67.661
G1 X46.174 Y-67.427
G1 X45.756 Y-67.219
G1 X45.325 Y-67.038
G1 X44.882 Y-66.884
G1 X44.43 Y-66.759
G1 X43.969 Y-66.663
G1 X43.502 Y-66.596
G1 X43.031 Y-66.559
G1 X42.557 Y-66.553
G1 X42.082 Y-66.576
G1 X41.609 Y-66.631
G1 X41.14 Y-66.715
G1 X40.675 Y-66.83
G1 X40.218 Y-66.974
G1 X39.771 Y-67.148
G1 X39.334 Y-67.351
G1 X38.911 Y-67.581
G1 X38.502 Y-67.839
G1 X38.11 Y-68.122
G1 X37.736 Y-68.431
G1 X37.383 Y-68.763
G1 X37.051 Y-69.118
G1 X36.741 Y-69.494
G1 X36.457 Y-69.889
G1 X36.197 Y-70.303
G1 X35.965 Y-70.732
G1 X35.76 Y-71.176
G1 X35.584 Y-71.633
G1 X35.437 Y-72.101
G1 X35.32 Y-72.577
G1 X35.234 Y-73.06
G1 X35.179 Y-73.548
G1 X35.156 Y-74.039
G1 X35.164 Y-74.531
G1 X35.203 Y-75.021
G1 X35.273 Y-75.508
G1 X35.375 Y-75.99
G1 X35.508 Y-76.465
G1 X35.67 Y-76.93
G1 X35.862 Y-77.384
G1 X36.083 Y-77.825
G1 X36.332 Y-78.251
G1 X36.607 Y-78.661
G1 X36.908 Y-79.052
G1 X37.234 Y-79.423
G1 X37.583 Y-79.772
G1 X37.953 Y-80.099
G1 X38.344 Y-80.401
G1 X38.753 Y-80.678
G1 X39.179 Y-80.928
G1 X39.621 Y-81.15
G1 X40.075 Y-81.344
G1 X40.542 Y-81.508
G1 X41.018 Y-81.642
G1 X41.502 Y-81.745
G1 X41.991 Y-81.817
G1 X42.485 Y-81.858
G1 X42.982 Y-81.867
G1 X43.478 Y-81.844
G1 X43.974 Y-81.79
G1 X44.466 Y-81.703
G1 X44.954 Y-81.585
G1 X45.434 Y-81.435
G1 X45.906 Y-81.254
G1 X46.368 Y-81.043
G1 X46.816 Y-80.801
G1 X47.251 Y-80.53
G1 X47.668 Y-80.231
G1 X48.067 Y-79.904
G1 X48.445 Y-79.552
G1 X48.801 Y-79.175
G1 X49.133 Y-78.775
G1 X49.439 Y-78.354
G1 X49.718 Y-77.914
G1 X49.968 Y-77.456
G1 X50.189 Y-76.984
G1 X50.378 Y-76.498
G1 X50.537 Y-76.001
G1 X50.663 Y-75.496
G1 X50.756 Y-74.984
G1 X50.816 Y-74.468
G1 X50.844 Y-73.949
G1 X50.838 Y-73.43
G1 X50.798 Y-72.913
G1 X50.726 Y-72.4
G1 X50.622 Y-71.893
G1 X50.485 Y-71.394
G1 X50.316 Y-70.906
G1 X50.117 Y-70.429
G1 X49.888 Y-69.965
G1 X49.629 Y-69.518
G1 X49.342 Y-69.087
G1 X49.028 Y-68.676
G1 X48.688 Y-68.285
G1 X48.323 Y-67.916
G1 X47.935 Y-67.571
G1 X47.526 Y-67.251
G1 X47.096 Y-66.958
G1 X46.647 Y-66.692
G1 X46.181 Y-66.455
G1 X45.7 Y-66.248
G1 X45.207 Y-66.072
G1 X44.701 Y-65.927
G1 X44.187 Y-65.815
G1 X43.665 Y-65.736
G1 X43.139 Y-65.69
G1 X42.609 Y-65.678
G1 X42.079 Y-65.7
G1 X41.55 Y-65.756
G1 X41.024 Y-65.846
G1 X40.505 Y-65.97
G1 X39.993 Y-66.127
G1 X39.492 Y-66.316
G1 X39.003 Y-66.538
G1 X38.528 Y-66.791
G1 X38.07 Y-67.074
G1 X37.63 Y-67.387
G1 X37.21 Y-67.727
G1 X36.813 Y-68.095
G1 X36.439 Y-68.487
G1 X36.091 Y-68.903
G1 X35.769 Y-69.341
G1 X35.476 Y-69.799
G1 X35.213 Y-70.276
G1 X34.98 Y-70.769
G1 X34.78 Y-71.276
G1 X34.612 Y-71.795
G1 X34.477 Y-72.325
G1 X34.377 Y-72.862
G1 X34.311 Y-73.405
G1 X34.28 Y-73.952
G1 X34.284 Y-74.5
G1 X34.323 Y-75.046
G1 X34.397 Y-75.59
G1 X34.505 Y-76.127
G1 X34.648 Y-76.657
G1 X34.825 Y-77.177
G1 X35.034 Y-77.685
G1 X35.276 Y-78.178
G1 X35.549 Y-78.655
G1 X35.852 Y-79.114
G1 X36.183 Y-79.552
G1 X36.542 Y-79.969
G1 X36.927 Y-80.361
G1 X37.337 Y-80.729
G1 X37.769 Y-81.069
G1 X38.222 Y-81.381
G1 X38.694 Y-81.664
G1 X39.184 Y-81.915
G1 X39.688 Y-82.135
G1 X40.206 Y-82.323
G1 X40.735 Y-82.476
G1 X41.273 Y-82.596
G1 X41.818 Y-82.681
G1 X42.368 Y-82.731
G1 X42.921 Y-82.746
G1 X43.475 Y-82.726
G1 X44.027 Y-82.67
G1 X44.576 Y-82.578
G1 X45.12 Y-82.451
G1 X45.656 Y-82.289
G1 X46.183 Y-82.093
G1 X46.697 Y-81.862
G1 X47.198 Y-81.598
G1 X47.682 Y-81.302
G1 X48.148 Y-80.974
G1 X48.593 Y-80.616
G1 X49.016 Y-80.229
G1 X49.414 Y-79.815
G1 X49.785 Y-79.375
G1 X50.128 Y-78.912
G1 X50.44 Y-78.427
G1 X50.722 Y-77.924
G1 X50.971 Y-77.402
G1 X51.185 Y-76.866
G1 X51.365 Y-76.318
G1 X51.51 Y-75.759
G1 X51.618 Y-75.193
G1 X51.69 Y-74.621
G1 X51.725 Y-74.046
G1 X51.724 Y-73.471
G1 X51.685 Y-72.897
G1 X51.61 Y-72.327
G1 X51.499 Y-71.764
G1 X51.352 Y-71.209
G1 X51.17 Y-70.665
G1 X50.953 Y-70.133
G1 X50.703 Y-69.617
G1 X50.42 Y-69.118
G1 X50.106 Y-68.637
G1 X49.761 Y-68.177
G1 X49.388 Y-67.74
G1 X48.987 Y-67.328
G1 X48.56 Y-66.941
G1 X48.108 Y-66.583
G1 X47.634 Y-66.253
G1 X47.139 Y-65.954
G1 X46.625 Y-65.687
G1 X46.094 Y-65.453
G1 X45.549 Y-65.253
G1 X44.991 Y-65.088
G1 X44.422 Y-64.959
G1 X43.845 Y-64.866
G1 X43.263 Y-64.81
G1 X42.677 Y-64.792
G1 X42.089 Y-64.811
G1 X41.504 Y-64.868
G1 X40.922 Y-64.963
G1 X40.346 Y-65.094
G1 X39.779 Y-65.263
G1 X39.223 Y-65.468
G1 X38.68 Y-65.708
G1 X38.153 Y-65.983
G1 X37.644 Y-66.292
G1 X37.155 Y-66.633
G1 X36.688 Y-67.005
G1 X36.246 Y-67.407
G1 X35.829 Y-67.837
G1 X35.44 Y-68.293
G1 X35.081 Y-68.774
G1 X34.753 Y-69.277
G1 X34.458 Y-69.8
G1 X34.197 Y-70.342
G1 X33.97 Y-70.9
G1 X33.78 Y-71.472
G1 X33.626 Y-72.055
G1 X33.51 Y-72.648
G1 X33.432 Y-73.246
G1 X33.393 Y-73.849
G1 X33.392 Y-74.454
G1 X33.43 Y-75.058
G1 X33.506 Y-75.658
G1 X33.621 Y-76.252
G1 X33.773 Y-76.839
G1 X33.963 Y-77.414
G1 X34.19 Y-77.976
G1 X34.452 Y-78.523
G1 X34.748 Y-79.052
G1 X35.078 Y-79.561
G1 X35.44 Y-80.048
G1 X35.832 Y-80.511
G1 X36.253 Y-80.948
G1 X36.701 Y-81.357
G1 X37.175 Y-81.737
G1 X37.672 Y-82.086
G1 X38.191 Y-82.402
G1 X38.728 Y-82.684
G1 X39.283 Y-82.932
G1 X39.853 Y-83.144
G1 X40.435 Y-83.318
G1 X41.028 Y-83.456
G1 X41.629 Y-83.555
G1 X42.235 Y-83.615
G1 X42.845 Y-83.637
G1 X43.457 Y-83.62
G1 X44.067 Y-83.563
G1 X44.673 Y-83.467
G1 X45.274 Y-83.333
G1 X45.867 Y-83.159
G1 X46.449 Y-82.948
G1 X47.018 Y-82.699
G1 X47.571 Y-82.413
G1 X48.107 Y-82.091
G1 X48.623 Y-81.735
G1 X49.115 Y-81.346
G1 X49.583 Y-80.925
G1 X50.024 Y-80.474
G1 X50.436 Y-79.995
G1 X50.817 Y-79.489
G1 X51.165 Y-78.96
G1 X51.479 Y-78.41
G1 X51.757 Y-77.84
G1 X51.998 Y-77.253
G1 X52.201 Y-76.652
G1 X52.365 Y-76.04
G1 X52.489 Y-75.418
G1 X52.574 Y-74.79
G1 X52.618 Y-74.159
G1 X52.622 Y-73.526
G1 X52.585 Y-72.895
G1 X52.508 Y-72.267
G1 X52.391 Y-71.647
G1 X52.234 Y-71.035
G1 X52.039 Y-70.434
G1 X51.806 Y-69.848
G1 X51.535 Y-69.277
G1 X51.229 Y-68.725
G1 X50.888 Y-68.193
G1 X50.513 Y-67.684
G1 X50.106 Y-67.2
G1 X49.669 Y-66.742
G1 X49.203 Y-66.313
G1 X48.71 Y-65.914
G1 X48.192 Y-65.547
G1 X47.651 Y-65.214
G1 X47.088 Y-64.915
G1 X46.507 Y-64.653
G1 X45.91 Y-64.428
G1 X45.298 Y-64.242
G1 X44.675 Y-64.094
G1 X44.042 Y-63.987
G1 X43.404 Y-63.921
G1 X42.762 Y-63.895
G1 X42.12 Y-63.91
G1 X41.48 Y-63.967
G1 X40.846 Y-64.063
G1 X40.218 Y-64.2
G1 X39.601 Y-64.377
G1 X38.996 Y-64.592
G1 X38.405 Y-64.845
G1 X37.832 Y-65.135
G1 X37.279 Y-65.46
G1 X36.747 Y-65.82
G1 X36.238 Y-66.212
G1 X35.755 Y-66.636
G1 X35.3 Y-67.089
G1 X34.874 Y-67.569
G1 X34.479 Y-68.075
G1 X34.116 Y-68.605
G1 X33.788 Y-69.157
G1 X33.494 Y-69.728
G1 X33.236 Y-70.316
G1 X33.016 Y-70.919
G1 X32.833 Y-71.535
G1 X32.689 Y-72.161
G1 X32.584 Y-72.794
G1 X32.519 Y-73.433
G1 X32.493 Y-74.075
G1 X32.508 Y-74.717
G1 X32.562 Y-75.357
G1 X32.656 Y-75.992
G1 X32.789 Y-76.62
G1 X32.96 Y-77.239
G1 X33.17 Y-77.846
G1 X33.416 Y-78.439
G1 X33.699 Y-79.016
G1 X34.017 Y-79.574
G1 X34.369 Y-80.111
G1 X34.753 Y-80.625
G1 X35.169 Y-81.115
G1 X35.614 Y-81.578
G1 X36.086 Y-82.013
G1 X36.585 Y-82.417
G1 X37.108 Y-82.79
G1 X37.653 Y-83.13
G1 X38.218 Y-83.435
G1 X38.801 Y-83.704
G1 X39.4 Y-83.937
G1 X40.012 Y-84.132
G1 X40.634 Y-84.29
G1 X41.265 Y-84.408
G1 X41.903 Y-84.487
G1 X42.544 Y-84.527
G1 X43.186 Y-84.528
G1 X43.827 Y-84.489
G1 X44.464 Y-84.411
G1 X45.096 Y-84.295
G1 X45.719 Y-84.14
G1 X46.332 Y-83.947
G1 X46.931 Y-83.718
G1 X47.516 Y-83.453
G1 X48.084 Y-83.153
G1 X48.633 Y-82.82
G1 X49.161 Y-82.454
G1 X49.666 Y-82.058
G1 X50.146 Y-81.631
G1 X50.6 Y-81.176
G1 X51.025 Y-80.695
G1 X51.42 Y-80.189
G1 X51.785 Y-79.66
G1 X52.117 Y-79.111
G1 X52.417 Y-78.543
G1 X52.682 Y-77.958
G1 X52.913 Y-77.359
G1 X53.107 Y-76.747
G1 X53.266 Y-76.124
G1 X53.387 Y-75.494
G1 X53.47 Y-74.857
G1 X53.516 Y-74.216
G1 X53.523 Y-73.574
G1 X53.491 Y-72.933
G1 X53.421 Y-72.295
G1 X53.312 Y-71.662
G1 X53.166 Y-71.036
G1 X52.983 Y-70.421
G1 X52.764 Y-69.817
G1 X52.509 Y-69.228
G1 X52.22 Y-68.654
G1 X51.897 Y-68.099
G1 X51.542 Y-67.564
G1 X51.156 Y-67.051
G1 X50.74 Y-66.562
G1 X50.296 Y-66.098
G1 X49.825 Y-65.661
G1 X49.329 Y-65.254
G1 X48.808 Y-64.877
G1 X48.267 Y-64.533
G1 X47.705 Y-64.221
G1 X47.126 Y-63.942
G1 X46.532 Y-63.699
G1 X45.925 Y-63.49
G1 X45.306 Y-63.318
G1 X44.679 Y-63.181
G1 X44.044 Y-63.082
G1 X43.405 Y-63.02
G1 X42.763 Y-62.995
G1 X42.121 Y-63.008
G1 X41.481 Y-63.06
G1 X40.845 Y-63.149
G1 X40.216 Y-63.276
G1 X39.595 Y-63.439
G1 X38.984 Y-63.637
G1 X38.386 Y-63.871
G1 X37.802 Y-64.139
G1 X37.235 Y-64.44
G1 X36.686 Y-64.773
G1 X36.157 Y-65.137
G1 X35.649 Y-65.531
G1 X35.166 Y-65.953
G1 X34.708 Y-66.403
G1 X34.277 Y-66.88
G1 X33.874 Y-67.38
G1 X33.501 Y-67.903
G1 X33.159 Y-68.446
G1 X32.848 Y-69.008
G1 X32.57 Y-69.587
G1 X32.325 Y-70.18
G1 X32.114 Y-70.787
G1 X31.938 Y-71.405
G1 X31.797 Y-72.031
G1 X31.692 Y-72.665
G1 X31.624 Y-73.303
G1 X31.593 Y-73.945
G1 X31.6 Y-74.587
G1 X31.643 Y-75.228
G1 X31.723 Y-75.865
G1 X31.838 Y-76.497
G1 X31.99 Y-77.121
G1 X32.176 Y-77.735
G1 X32.397 Y-78.338
G1 X32.651 Y-78.928
G1 X32.939 Y-79.502
G1 X33.258 Y-80.059
G1 X33.609 Y-80.597
G1 X33.99 Y-81.114
G1 X34.4 Y-81.608
G1 X34.838 Y-82.078
G1 X35.303 Y-82.521
G1 X35.791 Y-82.938
G1 X36.303 Y-83.326
G1 X36.836 Y-83.685
G1 X37.388 Y-84.012
G1 X37.958 Y-84.308
G1 X38.544 Y-84.571
G1 X39.143 Y-84.801
G1 X39.755 Y-84.997
G1 X40.377 Y-85.157
G1 X41.007 Y-85.28
G1 X41.644 Y-85.367
G1 X42.284 Y-85.418
G1 X42.926 Y-85.433
G1 X43.568 Y-85.411
G1 X44.207 Y-85.354
G1 X44.843 Y-85.26
G1 X45.472 Y-85.132
G1 X46.093 Y-84.969
G1 X46.704 Y-84.771
G1 X47.303 Y-84.54
G1 X47.888 Y-84.276
G1 X48.458 Y-83.979
G1 X49.01 Y-83.651
G1 X49.543 Y-83.292
G1 X50.055 Y-82.905
G1 X50.544 Y-82.489
G1 X51.01 Y-82.047
G1 X51.45 Y-81.58
G1 X51.864 Y-81.089
G1 X52.251 Y-80.576
G1 X52.609 Y-80.043
G1 X52.938 Y-79.491
G1 X53.236 Y-78.922
G1 X53.503 Y-78.338
G1 X53.737 Y-77.74
G1 X53.937 Y-77.13
G1 X54.103 Y-76.51
G1 X54.236 Y-75.881
G1 X54.333 Y-75.247
G1 X54.396 Y-74.608
G1 X54.424 Y-73.966
G1 X54.416 Y-73.324
G1 X54.373 Y-72.683
G1 X54.295 Y-72.046
G1 X54.181 Y-71.414
G1 X54.034 Y-70.789
G1 X53.853 Y-70.173
G1 X53.637 Y-69.568
G1 X53.388 Y-68.976
G1 X53.106 Y-68.399
G1 X52.794 Y-67.838
G1 X52.451 Y-67.295
G1 X52.079 Y-66.771
G1 X51.679 Y-66.269
G1 X51.252 Y-65.789
G1 X50.8 Y-65.333
G1 X50.324 Y-64.902
G1 X49.824 Y-64.498
G1 X49.303 Y-64.123
G1 X48.763 Y-63.777
G1 X48.203 Y-63.461
G1 X47.627 Y-63.177
G1 X47.037 Y-62.925
G1 X46.433 Y-62.706
G1 X45.819 Y-62.519
G1 X45.195 Y-62.366
G1 X44.564 Y-62.247
G1 X43.927 Y-62.161
G1 X43.287 Y-62.11
G1 X42.645 Y-62.093
G1 X42.003 Y-62.112
G1 X41.363 Y-62.165
G1 X40.727 Y-62.252
G1 X40.097 Y-62.375
G1 X39.474 Y-62.532
G1 X38.861 Y-62.723
G1 X38.259 Y-62.946
G1 X37.67 Y-63.202
G1 X37.095 Y-63.488
G1 X36.536 Y-63.804
G1 X35.994 Y-64.149
G1 X35.472 Y-64.522
G1 X34.97 Y-64.923
G1 X34.49 Y-65.35
G1 X34.034 Y-65.802
G1 X33.602 Y-66.277
G1 X33.197 Y-66.776
G1 X32.82 Y-67.295
G1 X32.471 Y-67.835
G1 X32.151 Y-68.392
G1 X31.862 Y-68.965
G1 X31.602 Y-69.552
G1 X31.374 Y-70.152
G1 X31.178 Y-70.764
G1 X31.014 Y-71.385
G1 X30.882 Y-72.013
G1 X30.784 Y-72.648
G1 X30.72 Y-73.287
G1 X30.69 Y-73.928
G1 X30.694 Y-74.571
G1 X30.732 Y-75.212
G1 X30.805 Y-75.85
G1 X30.912 Y-76.483
G1 X31.052 Y-77.109
G1 X31.225 Y-77.728
G1 X31.43 Y-78.337
G1 X31.666 Y-78.934
G1 X31.933 Y-79.518
G1 X32.23 Y-80.087
G1 X32.556 Y-80.64
G1 X32.911 Y-81.176
G1 X33.294 Y-81.691
G1 X33.704 Y-82.186
G1 X34.139 Y-82.658
G1 X34.6 Y-83.105
G1 X35.083 Y-83.528
G1 X35.589 Y-83.924
G1 X36.114 Y-84.293
G1 X36.658 Y-84.635
G1 X37.219 Y-84.947
G1 X37.796 Y-85.23
G1 X38.386 Y-85.482
G1 X38.989 Y-85.703
G1 X39.603 Y-85.892
G1 X40.226 Y-86.048
G1 X40.856 Y-86.172
G1 X41.492 Y-86.261
G1 X42.132 Y-86.317
G1 X42.774 Y-86.338
G1 X43.416 Y-86.326
G1 X44.056 Y-86.28
G1 X44.693 Y-86.2
G1 X45.326 Y-86.088
G1 X45.952 Y-85.944
G1 X46.569 Y-85.768
G1 X47.177 Y-85.561
G1 X47.773 Y-85.322
G1 X48.356 Y-85.053
G1 X48.925 Y-84.755
G1 X49.477 Y-84.427
G1 X50.012 Y-84.071
G1 X50.527 Y-83.687
G1 X51.021 Y-83.277
G1 X51.493 Y-82.842
G1 X51.942 Y-82.383
G1 X52.368 Y-81.902
G1 X52.768 Y-81.4
G1 X53.142 Y-80.878
G1 X53.49 Y-80.338
G1 X53.81 Y-79.782
G1 X54.102 Y-79.21
G1 X54.365 Y-78.623
G1 X54.597 Y-78.025
G1 X54.798 Y-77.415
G1 X54.968 Y-76.795
G1 X55.105 Y-76.168
G1 X55.21 Y-75.535
G1 X55.282 Y-74.896
G1 X55.322 Y-74.255
G1 X55.329 Y-73.613
G1 X55.303 Y-72.972
G1 X55.245 Y-72.332
G1 X55.154 Y-71.696
G1 X55.032 Y-71.066
G1 X54.877 Y-70.443
G1 X54.692 Y-69.828
G1 X54.474 Y-69.223
G1 X54.227 Y-68.631
G1 X53.949 Y-68.052
G1 X53.641 Y-67.489
G1 X53.304 Y-66.942
G1 X52.94 Y-66.412
G1 X52.55 Y-65.902
G1 X52.135 Y-65.413
G1 X51.695 Y-64.944
G1 X51.232 Y-64.499
G1 X50.748 Y-64.078
G1 X50.242 Y-63.682
G1 X49.718 Y-63.312
G1 X49.175 Y-62.969
G1 X48.615 Y-62.654
G1 X48.039 Y-62.369
G1 X47.45 Y-62.113
G1 X46.849 Y-61.888
G1 X46.236 Y-61.695
G1 X45.615 Y-61.532
G1 X44.987 Y-61.4
G1 X44.352 Y-61.3
G1 X43.714 Y-61.232
G1 X43.073 Y-61.195
G1 X42.43 Y-61.191
G1 X41.789 Y-61.219
G1 X41.15 Y-61.278
G1 X40.514 Y-61.37
G1 X39.884 Y-61.495
G1 X39.261 Y-61.65
G1 X38.646 Y-61.837
G1 X38.043 Y-62.056
G1 X37.45 Y-62.304
G1 X36.871 Y-62.581
G1 X36.306 Y-62.887
G1 X35.757 Y-63.22
G1 X35.225 Y-63.58
G1 X34.712 Y-63.965
G1 X34.218 Y-64.376
G1 X33.744 Y-64.81
G1 X33.293 Y-65.267
G1 X32.865 Y-65.746
G1 X32.462 Y-66.245
G1 X32.084 Y-66.764
G1 X31.732 Y-67.302
G1 X31.408 Y-67.856
G1 X31.113 Y-68.426
G1 X30.845 Y-69.01
G1 X30.607 Y-69.606
G1 X30.398 Y-70.214
G1 X30.218 Y-70.83
G1 X30.069 Y-71.455
G1 X29.951 Y-72.086
G1 X29.863 Y-72.722
G1 X29.807 Y-73.362
G1 X29.782 Y-74.004
G1 X29.789 Y-74.646
G1 X29.828 Y-75.287
G1 X29.899 Y-75.925
G1 X30.002 Y-76.559
G1 X30.136 Y-77.187
G1 X30.301 Y-77.808
G1 X30.496 Y-78.419
G1 X30.721 Y-79.021
G1 X30.974 Y-79.611
G1 X31.256 Y-80.188
G1 X31.565 Y-80.751
G1 X31.901 Y-81.298
G1 X32.264 Y-81.828
G1 X32.652 Y-82.34
G1 X33.065 Y-82.832
G1 X33.502 Y-83.303
G1 X33.961 Y-83.751
G1 X34.442 Y-84.176
G1 X34.944 Y-84.577
G1 X35.466 Y-84.952
G1 X36.005 Y-85.301
G1 X36.56 Y-85.623
G1 X37.131 Y-85.918
G1 X37.715 Y-86.185
G1 X38.311 Y-86.424
G1 X38.918 Y-86.633
G1 X39.535 Y-86.812
G1 X40.159 Y-86.961
G1 X40.791 Y-87.079
G1 X41.427 Y-87.166
G1 X42.067 Y-87.222
G1 X42.708 Y-87.246
G1 X43.351 Y-87.238
G1 X43.991 Y-87.198
G1 X44.63 Y-87.127
G1 X45.264 Y-87.025
G1 X45.892 Y-86.893
G1 X46.514 Y-86.732
G1 X47.127 Y-86.54
G1 X47.73 Y-86.32
G1 X48.322 Y-86.071
G1 X48.901 Y-85.794
G1 X49.467 Y-85.49
G1 X50.017 Y-85.159
G1 X50.551 Y-84.802
G1 X51.066 Y-84.419
G1 X51.563 Y-84.011
G1 X52.038 Y-83.58
G1 X52.492 Y-83.125
G1 X52.924 Y-82.65
G1 X53.333 Y-82.155
G1 X53.718 Y-81.641
G1 X54.078 Y-81.109
G1 X54.413 Y-80.562
G1 X54.722 Y-79.999
G1 X55.005 Y-79.422
G1 X55.26 Y-78.832
G1 X55.486 Y-78.232
G1 X55.684 Y-77.621
G1 X55.852 Y-77.001
G1 X55.991 Y-76.374
G1 X56.099 Y-75.741
G1 X56.177 Y-75.103
G1 X56.223 Y-74.463
G1 X56.239 Y-73.821
G1 X56.224 Y-73.179
G1 X56.179 Y-72.538
G1 X56.104 Y-71.9
G1 X55.999 Y-71.267
G1 X55.864 Y-70.639
G1 X55.7 Y-70.018
G1 X55.507 Y-69.406
G1 X55.284 Y-68.803
G1 X55.034 Y-68.212
G1 X54.755 Y-67.634
G1 X54.448 Y-67.069
G1 X54.115 Y-66.52
G1 X53.756 Y-65.988
G1 X53.371 Y-65.474
G1 X52.963 Y-64.978
G1 X52.532 Y-64.502
G1 X52.078 Y-64.047
G1 X51.604 Y-63.614
G1 X51.11 Y-63.204
G1 X50.597 Y-62.817
G1 X50.067 Y-62.456
G1 X49.52 Y-62.119
G1 X48.957 Y-61.809
G1 X48.381 Y-61.526
G1 X47.792 Y-61.271
G1 X47.191 Y-61.044
G1 X46.58 Y-60.847
G1 X45.96 Y-60.678
G1 X45.333 Y-60.54
G1 X44.7 Y-60.431
G1 X44.063 Y-60.351
G1 X43.423 Y-60.301
G1 X42.781 Y-60.281
G1 X42.139 Y-60.291
G1 X41.498 Y-60.331
G1 X40.859 Y-60.4
G1 X40.225 Y-60.5
G1 X39.596 Y-60.629
G1 X38.973 Y-60.787
G1 X38.359 Y-60.975
G1 X37.755 Y-61.191
G1 X37.161 Y-61.436
G1 X36.579 Y-61.708
G1 X36.011 Y-62.008
G1 X35.458 Y-62.333
G1 X34.92 Y-62.684
G1 X34.398 Y-63.059
G1 X33.895 Y-63.457
G1 X33.41 Y-63.879
G1 X32.945 Y-64.322
G1 X32.501 Y-64.786
G1 X32.079 Y-65.27
G1 X31.68 Y-65.773
G1 X31.305 Y-66.294
G1 X30.954 Y-66.832
G1 X30.629 Y-67.386
G1 X30.33 Y-67.954
G1 X30.058 Y-68.536
G1 X29.813 Y-69.129
G1 X29.596 Y-69.734
G1 X29.407 Y-70.348
G1 X29.246 Y-70.969
G1 X29.113 Y-71.598
G1 X29.009 Y-72.231
G1 X28.934 Y-72.869
G1 X28.889 Y-73.51
G1 X28.873 Y-74.152
G1 X28.886 Y-74.794
G1 X28.929 Y-75.434
G1 X29.001 Y-76.072
G1 X29.103 Y-76.707
G1 X29.235 Y-77.335
G1 X29.395 Y-77.957
G1 X29.585 Y-78.571
G1 X29.802 Y-79.175
G1 X30.047 Y-79.769
G1 X30.318 Y-80.351
G1 X30.615 Y-80.92
G1 X30.938 Y-81.475
G1 X31.286 Y-82.015
G1 X31.658 Y-82.538
G1 X32.053 Y-83.044
G1 X32.472 Y-83.532
G1 X32.912 Y-83.999
G1 X33.373 Y-84.446
G1 X33.855 Y-84.871
G1 X34.355 Y-85.273
G1 X34.874 Y-85.651
G1 X35.41 Y-86.005
G1 X35.962 Y-86.333
G1 X36.529 Y-86.636
G1 X37.108 Y-86.913
G1 X37.7 Y-87.163
G1 X38.302 Y-87.386
G1 X38.913 Y-87.582
G1 X39.533 Y-87.75
G1 X40.16 Y-87.889
G1 X40.793 Y-87.999
G1 X41.43 Y-88.081
G1 X42.07 Y-88.133
G1 X42.712 Y-88.156
G1 X43.354 Y-88.149
G1 X43.995 Y-88.113
G1 X44.634 Y-88.046
G1 X45.269 Y-87.951
G1 X45.899 Y-87.827
G1 X46.523 Y-87.674
G1 X47.139 Y-87.494
G1 X47.747 Y-87.287
G1 X48.345 Y-87.053
G1 X48.932 Y-86.792
G1 X49.506 Y-86.506
G1 X50.068 Y-86.193
G1 X50.614 Y-85.856
G1 X51.145 Y-85.495
G1 X51.659 Y-85.11
G1 X52.155 Y-84.702
G1 X52.632 Y-84.272
G1 X53.089 Y-83.821
G1 X53.525 Y-83.349
G1 X53.939 Y-82.858
G1 X54.33 Y-82.349
G1 X54.699 Y-81.824
G1 X55.045 Y-81.282
G1 X55.366 Y-80.726
G1 X55.663 Y-80.157
G1 X55.934 Y-79.575
G1 X56.179 Y-78.981
G1 X56.398 Y-78.378
G1 X56.59 Y-77.765
G1 X56.755 Y-77.144
G1 X56.891 Y-76.516
G1 X56.999 Y-75.883
G1 X57.079 Y-75.246
G1 X57.129 Y-74.606
G1 X57.151 Y-73.964
G1 X57.143 Y-73.322
G1 X57.107 Y-72.681
G1 X57.042 Y-72.042
G1 X56.949 Y-71.406
G1 X56.829 Y-70.776
G1 X56.681 Y-70.151
G1 X56.505 Y-69.533
G1 X56.302 Y-68.924
G1 X56.072 Y-68.324
G1 X55.816 Y-67.735
G1 X55.534 Y-67.158
G1 X55.226 Y-66.595
G1 X54.893 Y-66.046
G1 X54.536 Y-65.512
G1 X54.155 Y-64.995
G1 X53.751 Y-64.496
G1 X53.325 Y-64.015
G1 X52.879 Y-63.554
G1 X52.412 Y-63.113
G1 X51.926 Y-62.693
G1 X51.422 Y-62.294
G1 X50.901 Y-61.919
G1 X50.364 Y-61.566
G1 X49.813 Y-61.238
G1 X49.247 Y-60.935
G1 X48.668 Y-60.657
G1 X48.077 Y-60.404
G1 X47.476 Y-60.179
G1 X46.865 Y-59.98
G1 X46.246 Y-59.809
G1 X45.62 Y-59.666
G1 X44.988 Y-59.551
G1 X44.352 Y-59.464
G1 X43.713 Y-59.405
G1 X43.071 Y-59.374
G1 X42.429 Y-59.371
G1 X41.787 Y-59.396
G1 X41.147 Y-59.449
G1 X40.51 Y-59.53
G1 X39.877 Y-59.639
G1 X39.25 Y-59.775
G1 X38.629 Y-59.938
G1 X38.015 Y-60.129
G1 X37.411 Y-60.347
G1 X36.817 Y-60.591
G1 X36.234 Y-60.861
G1 X35.664 Y-61.156
G1 X35.108 Y-61.477
G1 X34.566 Y-61.821
G1 X34.039 Y-62.189
G1 X33.529 Y-62.579
G1 X33.036 Y-62.991
G1 X32.562 Y-63.423
G1 X32.106 Y-63.876
G1 X31.67 Y-64.347
G1 X31.255 Y-64.838
G1 X30.862 Y-65.345
G1 X30.491 Y-65.87
G1 X30.144 Y-66.41
G1 X29.82 Y-66.964
G1 X29.521 Y-67.532
G1 X29.246 Y-68.113
G1 X28.998 Y-68.705
G1 X28.776 Y-69.308
G1 X28.58 Y-69.919
G1 X28.411 Y-70.539
G1 X28.268 Y-71.165
G1 X28.153 Y-71.797
G1 X28.064 Y-72.433
G1 X28.003 Y-73.072
G1 X27.969 Y-73.713
G1 X27.963 Y-74.355
G1 X27.984 Y-74.997
G1 X28.033 Y-75.638
G1 X28.109 Y-76.275
G1 X28.214 Y-76.909
G1 X28.345 Y-77.537
G1 X28.504 Y-78.16
G1 X28.69 Y-78.774
G1 X28.902 Y-79.38
G1 X29.141 Y-79.976
G1 X29.405 Y-80.562
G1 X29.694 Y-81.135
G1 X30.007 Y-81.696
G1 X30.344 Y-82.243
G1 X30.703 Y-82.775
G1 X31.085 Y-83.291
G1 X31.489 Y-83.791
G1 X31.914 Y-84.272
G1 X32.359 Y-84.735
G1 X32.823 Y-85.179
G1 X33.307 Y-85.601
G1 X33.808 Y-86.003
G1 X34.326 Y-86.382
G1 X34.861 Y-86.738
G1 X35.41 Y-87.07
G1 X35.974 Y-87.378
G1 X36.55 Y-87.662
G1 X37.138 Y-87.92
G1 X37.736 Y-88.154
G1 X38.344 Y-88.361
G1 X38.96 Y-88.543
G1 X39.583 Y-88.698
G1 X40.212 Y-88.827
G1 X40.846 Y-88.928
G1 X41.484 Y-89.002
G1 X42.125 Y-89.049
G1 X42.767 Y-89.068
G1 X43.409 Y-89.06
G1 X44.05 Y-89.024
G1 X44.689 Y-88.96
G1 X45.325 Y-88.869
G1 X45.956 Y-88.75
G1 X46.581 Y-88.604
G1 X47.2 Y-88.432
G1 X47.811 Y-88.234
G1 X48.413 Y-88.01
G1 X49.005 Y-87.762
G1 X49.586 Y-87.489
G1 X50.156 Y-87.192
G1 X50.712 Y-86.871
G1 X51.254 Y-86.527
G1 X51.782 Y-86.161
G1 X52.293 Y-85.772
G1 X52.787 Y-85.362
G1 X53.264 Y-84.932
G1 X53.721 Y-84.481
G1 X54.159 Y-84.012
G1 X54.577 Y-83.524
G1 X54.973 Y-83.018
G1 X55.348 Y-82.497
G1 X55.701 Y-81.96
G1 X56.031 Y-81.409
G1 X56.338 Y-80.845
G1 X56.622 Y-80.269
G1 X56.881 Y-79.682
G1 X57.116 Y-79.084
G1 X57.326 Y-78.477
G1 X57.511 Y-77.862
G1 X57.67 Y-77.24
G1 X57.802 Y-76.612
G1 X57.908 Y-75.978
G1 X57.987 Y-75.341
G1 X58.039 Y-74.701
G1 X58.064 Y-74.059
G1 X58.061 Y-73.417
G1 X58.031 Y-72.775
G1 X57.974 Y-72.136
G1 X57.89 Y-71.499
G1 X57.78 Y-70.866
G1 X57.644 Y-70.239
G1 X57.482 Y-69.617
G1 X57.294 Y-69.003
G1 X57.081 Y-68.397
G1 X56.843 Y-67.801
G1 X56.58 Y-67.215
G1 X56.293 Y-66.641
G1 X55.982 Y-66.079
G1 X55.648 Y-65.53
G1 X55.291 Y-64.997
G1 X54.911 Y-64.478
G1 X54.51 Y-63.977
G1 X54.088 Y-63.493
G1 X53.646 Y-63.027
G1 X53.184 Y-62.581
G1 X52.705 Y-62.154
G1 X52.208 Y-61.747
G1 X51.695 Y-61.361
G1 X51.166 Y-60.996
G1 X50.623 Y-60.654
G1 X50.065 Y-60.335
G1 X49.495 Y-60.039
G1 X48.914 Y-59.767
G1 X48.321 Y-59.519
G1 X47.719 Y-59.297
G1 X47.108 Y-59.1
G1 X46.489 Y-58.928
G1 X45.863 Y-58.783
G1 X45.232 Y-58.664
G1 X44.597 Y-58.572
G1 X43.958 Y-58.506
G1 X43.317 Y-58.467
G1 X42.675 Y-58.455
G1 X42.033 Y-58.469
G1 X41.392 Y-58.509
G1 X40.753 Y-58.575
G1 X40.117 Y-58.668
G1 X39.486 Y-58.786
G1 X38.861 Y-58.931
G1 X38.241 Y-59.101
G1 X37.629 Y-59.296
G1 X37.026 Y-59.516
G1 X36.433 Y-59.761
G1 X35.85 Y-60.031
G1 X35.279 Y-60.324
G1 X34.72 Y-60.642
G1 X34.176 Y-60.982
G1 X33.645 Y-61.344
G1 X33.131 Y-61.728
G1 X32.632 Y-62.132
G1 X32.15 Y-62.557
G1 X31.685 Y-63.
G1 X31.239 Y-63.462
G1 X30.812 Y-63.942
G1 X30.405 Y-64.439
G1 X30.019 Y-64.952
G1 X29.653 Y-65.48
G1 X29.31 Y-66.022
G1 X28.989 Y-66.579
G1 X28.691 Y-67.147
G1 X28.417 Y-67.728
G1 X28.166 Y-68.32
G1 X27.941 Y-68.921
G1 X27.741 Y-69.531
G1 X27.565 Y-70.149
G1 X27.416 Y-70.773
G1 X27.291 Y-71.403
G1 X27.192 Y-72.038
G1 X27.119 Y-72.676
G1 X27.071 Y-73.316
G1 X27.049 Y-73.958
G1 X27.054 Y-74.6
G1 X27.084 Y-75.242
G1 X27.14 Y-75.881
G1 X27.222 Y-76.518
G1 X27.33 Y-77.151
G1 X27.463 Y-77.78
G1 X27.622 Y-78.402
G1 X27.806 Y-79.017
G1 X28.016 Y-79.624
G1 X28.251 Y-80.222
G1 X28.509 Y-80.809
G1 X28.792 Y-81.386
G1 X29.098 Y-81.951
G1 X29.426 Y-82.503
G1 X29.775 Y-83.042
G1 X30.147 Y-83.566
G1 X30.539 Y-84.074
G1 X30.951 Y-84.567
G1 X31.383 Y-85.042
G1 X31.833 Y-85.5
G1 X32.302 Y-85.939
G1 X32.788 Y-86.358
G1 X33.291 Y-86.758
G1 X33.81 Y-87.136
G1 X34.343 Y-87.493
G1 X34.892 Y-87.828
G1 X35.453 Y-88.14
G1 X36.027 Y-88.428
G1 X36.612 Y-88.692
G1 X37.207 Y-88.933
G1 X37.812 Y-89.15
G1 X38.425 Y-89.342
G1 X39.044 Y-89.51
G1 X39.671 Y-89.652
G1 X40.302 Y-89.77
G1 X40.938 Y-89.861
G1 X41.576 Y-89.928
G1 X42.217 Y-89.968
G1 X42.859 Y-89.983
G1 X43.501 Y-89.971
G1 X44.142 Y-89.934
G1 X44.782 Y-89.87
G1 X45.417 Y-89.781
G1 X46.049 Y-89.666
G1 X46.676 Y-89.525
G1 X47.296 Y-89.359
G1 X47.909 Y-89.168
G1 X48.514 Y-88.953
G1 X49.11 Y-88.714
G1 X49.697 Y-88.452
G1 X50.272 Y-88.167
G1 X50.836 Y-87.859
G1 X51.387 Y-87.529
G1 X51.924 Y-87.178
G1 X52.448 Y-86.806
G1 X52.956 Y-86.413
G1 X53.447 Y-86.
G1 X53.922 Y-85.568
G1 X54.38 Y-85.117
G1 X54.819 Y-84.648
G1 X55.238 Y-84.162
G1 X55.638 Y-83.659
G1 X56.017 Y-83.141
G1 X56.375 Y-82.608
G1 X56.712 Y-82.061
G1 X57.027 Y-81.501
G1 X57.32 Y-80.93
G1 X57.591 Y-80.348
G1 X57.839 Y-79.755
G1 X58.064 Y-79.154
G1 X58.264 Y-78.544
G1 X58.441 Y-77.926
G1 X58.593 Y-77.302
G1 X58.721 Y-76.673
G1 X58.823 Y-76.039
G1 X58.901 Y-75.402
G1 X58.953 Y-74.761
G1 X58.979 Y-74.12
G1 Y-73.478
G1 X58.953 Y-72.836
G1 X58.902 Y-72.196
G1 X58.825 Y-71.558
G1 X58.723 Y-70.924
G1 X58.596 Y-70.295
G1 X58.445 Y-69.671
G1 X58.269 Y-69.053
G1 X58.07 Y-68.442
G1 X57.847 Y-67.84
G1 X57.6 Y-67.247
G1 X57.33 Y-66.665
G1 X57.037 Y-66.093
G1 X56.723 Y-65.533
G1 X56.386 Y-64.987
G1 X56.028 Y-64.453
G1 X55.648 Y-63.935
G1 X55.249 Y-63.432
G1 X54.829 Y-62.946
G1 X54.391 Y-62.477
G1 X53.933 Y-62.026
G1 X53.459 Y-61.594
G1 X52.967 Y-61.18
G1 X52.46 Y-60.786
G1 X51.938 Y-60.413
G1 X51.402 Y-60.059
G1 X50.852 Y-59.727
G1 X50.29 Y-59.417
G1 X49.716 Y-59.129
G1 X49.131 Y-58.864
G1 X48.536 Y-58.622
G1 X47.932 Y-58.403
G1 X47.32 Y-58.208
G1 X46.701 Y-58.037
G1 X46.076 Y-57.891
G1 X45.445 Y-57.77
G1 X44.81 Y-57.675
G1 X44.172 Y-57.604
G1 X43.531 Y-57.559
G1 X42.889 Y-57.539
G1 X42.247 Y-57.544
G1 X41.606 Y-57.574
G1 X40.966 Y-57.629
G1 X40.329 Y-57.709
G1 X39.695 Y-57.813
G1 X39.066 Y-57.941
G1 X38.442 Y-58.094
G1 X37.825 Y-58.271
G1 X37.215 Y-58.471
G1 X36.613 Y-58.695
G1 X36.02 Y-58.943
G1 X35.438 Y-59.213
G1 X34.866 Y-59.506
G1 X34.307 Y-59.821
G1 X33.76 Y-60.158
G1 X33.227 Y-60.516
G1 X32.709 Y-60.895
G1 X32.205 Y-61.294
G1 X31.718 Y-61.712
G1 X31.246 Y-62.148
G1 X30.792 Y-62.602
G1 X30.356 Y-63.073
G1 X29.937 Y-63.56
G1 X29.538 Y-64.063
G1 X29.159 Y-64.581
G1 X28.799 Y-65.114
G1 X28.46 Y-65.659
G1 X28.143 Y-66.217
G1 X27.847 Y-66.788
G1 X27.574 Y-67.369
G1 X27.323 Y-67.96
G1 X27.096 Y-68.56
G1 X26.892 Y-69.169
G1 X26.712 Y-69.786
G1 X26.557 Y-70.409
G1 X26.425 Y-71.038
G1 X26.318 Y-71.671
G1 X26.235 Y-72.308
G1 X26.176 Y-72.947
G1 X26.142 Y-73.588
G1 X26.132 Y-74.23
G1 X26.147 Y-74.872
G1 X26.186 Y-75.513
G1 X26.249 Y-76.153
G1 X26.337 Y-76.789
G1 X26.449 Y-77.421
G1 X26.585 Y-78.049
G1 X26.746 Y-78.67
G1 X26.93 Y-79.286
G1 X27.138 Y-79.893
G1 X27.369 Y-80.492
G1 X27.624 Y-81.082
G1 X27.902 Y-81.661
G1 X28.202 Y-82.229
G1 X28.523 Y-82.785
G1 X28.865 Y-83.328
G1 X29.227 Y-83.859
G1 X29.609 Y-84.375
G1 X30.011 Y-84.876
G1 X30.431 Y-85.361
G1 X30.87 Y-85.83
G1 X31.326 Y-86.282
G1 X31.799 Y-86.717
G1 X32.288 Y-87.133
G1 X32.793 Y-87.53
G1 X33.313 Y-87.907
G1 X33.847 Y-88.263
G1 X34.394 Y-88.599
G1 X34.954 Y-88.913
G1 X35.526 Y-89.205
G1 X36.109 Y-89.475
G1 X36.702 Y-89.722
G1 X37.304 Y-89.945
G1 X37.914 Y-90.146
G1 X38.531 Y-90.324
G1 X39.155 Y-90.478
G1 X39.783 Y-90.608
G1 X40.417 Y-90.715
G1 X41.054 Y-90.797
G1 X41.693 Y-90.855
G1 X42.334 Y-90.889
G1 X42.976 Y-90.898
G1 X43.618 Y-90.883
G1 X44.259 Y-90.844
G1 X44.898 Y-90.78
G1 X45.535 Y-90.691
G1 X46.167 Y-90.578
G1 X46.794 Y-90.441
G1 X47.416 Y-90.279
G1 X48.03 Y-90.094
G1 X48.638 Y-89.886
G1 X49.237 Y-89.655
G1 X49.827 Y-89.402
G1 X50.407 Y-89.126
G1 X50.977 Y-88.83
G1 X51.535 Y-88.512
G1 X52.081 Y-88.174
G1 X52.614 Y-87.815
G1 X53.133 Y-87.437
G1 X53.637 Y-87.039
G1 X54.126 Y-86.623
G1 X54.599 Y-86.189
G1 X55.055 Y-85.737
G1 X55.494 Y-85.268
G1 X55.915 Y-84.783
G1 X56.317 Y-84.282
G1 X56.7 Y-83.766
G1 X57.062 Y-83.236
G1 X57.404 Y-82.693
G1 X57.726 Y-82.137
G1 X58.027 Y-81.57
G1 X58.307 Y-80.992
G1 X58.565 Y-80.404
G1 X58.802 Y-79.807
G1 X59.016 Y-79.202
G1 X59.208 Y-78.589
G1 X59.377 Y-77.969
G1 X59.522 Y-77.344
G1 X59.645 Y-76.713
G1 X59.743 Y-76.079
G1 X59.818 Y-75.441
G1 X59.869 Y-74.801
G1 X59.896 Y-74.159
G1 X59.898 Y-73.517
G1 X59.875 Y-72.875
G1 X59.828 Y-72.235
G1 X59.757 Y-71.596
G1 X59.662 Y-70.961
G1 X59.543 Y-70.33
G1 X59.4 Y-69.704
G1 X59.235 Y-69.083
G1 X59.047 Y-68.469
G1 X58.836 Y-67.863
G1 X58.603 Y-67.264
G1 X58.348 Y-66.675
G1 X58.071 Y-66.096
G1 X57.773 Y-65.527
G1 X57.454 Y-64.97
G1 X57.114 Y-64.425
G1 X56.754 Y-63.893
G1 X56.375 Y-63.375
G1 X55.976 Y-62.871
G1 X55.558 Y-62.384
G1 X55.122 Y-61.912
G1 X54.668 Y-61.458
G1 X54.197 Y-61.021
G1 X53.711 Y-60.602
G1 X53.209 Y-60.202
G1 X52.692 Y-59.82
G1 X52.162 Y-59.458
G1 X51.619 Y-59.115
G1 X51.063 Y-58.793
G1 X50.496 Y-58.492
G1 X49.918 Y-58.211
G1 X49.331 Y-57.953
G1 X48.734 Y-57.716
G1 X48.128 Y-57.501
G1 X47.516 Y-57.309
G1 X46.896 Y-57.14
G1 X46.271 Y-56.995
G1 X45.64 Y-56.872
G1 X45.005 Y-56.774
G1 X44.368 Y-56.7
G1 X43.727 Y-56.65
G1 X43.086 Y-56.624
G1 X42.444 Y-56.622
G1 X41.802 Y-56.643
G1 X41.161 Y-56.688
G1 X40.523 Y-56.757
G1 X39.887 Y-56.848
G1 X39.255 Y-56.963
G1 X38.628 Y-57.101
G1 X38.006 Y-57.262
G1 X37.391 Y-57.445
G1 X36.783 Y-57.651
G1 X36.182 Y-57.879
G1 X35.591 Y-58.129
G1 X35.009 Y-58.401
G1 X34.437 Y-58.694
G1 X33.877 Y-59.008
G1 X33.329 Y-59.343
G1 X32.794 Y-59.698
G1 X32.273 Y-60.073
G1 X31.765 Y-60.467
G1 X31.273 Y-60.879
G1 X30.796 Y-61.309
G1 X30.335 Y-61.756
G1 X29.891 Y-62.22
G1 X29.463 Y-62.699
G1 X29.053 Y-63.193
G1 X28.662 Y-63.702
G1 X28.289 Y-64.225
G1 X27.935 Y-64.761
G1 X27.602 Y-65.31
G1 X27.288 Y-65.87
G1 X26.995 Y-66.442
G1 X26.723 Y-67.023
G1 X26.472 Y-67.615
G1 X26.244 Y-68.215
G1 X26.038 Y-68.823
G1 X25.854 Y-69.439
G1 X25.694 Y-70.06
G1 X25.557 Y-70.688
G1 X25.443 Y-71.32
G1 X25.352 Y-71.955
G1 X25.284 Y-72.594
G1 X25.238 Y-73.235
G1 X25.217 Y-73.876
G1 X25.218 Y-74.519
G1 X25.242 Y-75.16
G1 X25.29 Y-75.801
G1 X25.36 Y-76.439
G1 X25.454 Y-77.074
G1 X25.57 Y-77.706
G1 X25.71 Y-78.333
G1 X25.872 Y-78.954
G1 X26.057 Y-79.569
G1 X26.264 Y-80.177
G1 X26.493 Y-80.777
G1 X26.745 Y-81.368
G1 X27.018 Y-81.949
G1 X27.313 Y-82.519
G1 X27.628 Y-83.079
G1 X27.963 Y-83.627
G1 X28.318 Y-84.162
G1 X28.692 Y-84.684
G1 X29.084 Y-85.192
G1 X29.495 Y-85.686
G1 X29.923 Y-86.165
G1 X30.367 Y-86.628
G1 X30.829 Y-87.075
G1 X31.306 Y-87.505
G1 X31.798 Y-87.917
G1 X32.305 Y-88.311
G1 X32.827 Y-88.686
G1 X33.361 Y-89.043
G1 X33.908 Y-89.379
G1 X34.467 Y-89.695
G1 X35.038 Y-89.99
G1 X35.619 Y-90.263
G1 X36.209 Y-90.515
G1 X36.809 Y-90.745
G1 X37.417 Y-90.953
G1 X38.031 Y-91.139
G1 X38.652 Y-91.303
G1 X39.279 Y-91.444
G1 X39.91 Y-91.563
G1 X40.545 Y-91.66
G1 X41.183 Y-91.733
G1 X41.823 Y-91.783
G1 X42.464 Y-91.811
G1 X43.107 Y-91.815
G1 X43.748 Y-91.796
G1 X44.389 Y-91.754
G1 X45.028 Y-91.689
G1 X45.664 Y-91.601
G1 X46.297 Y-91.489
G1 X46.925 Y-91.355
G1 X47.547 Y-91.197
G1 X48.163 Y-91.017
G1 X48.773 Y-90.814
G1 X49.375 Y-90.59
G1 X49.968 Y-90.345
G1 X50.552 Y-90.078
G1 X51.127 Y-89.791
G1 X51.691 Y-89.484
G1 X52.243 Y-89.157
G1 X52.784 Y-88.811
G1 X53.312 Y-88.445
G1 X53.827 Y-88.061
G1 X54.328 Y-87.659
G1 X54.814 Y-87.24
G1 X55.285 Y-86.803
G1 X55.74 Y-86.35
G1 X56.179 Y-85.881
G1 X56.6 Y-85.397
G1 X57.004 Y-84.897
G1 X57.389 Y-84.383
G1 X57.755 Y-83.856
G1 X58.102 Y-83.315
G1 X58.43 Y-82.763
G1 X58.738 Y-82.199
G1 X59.025 Y-81.625
G1 X59.293 Y-81.041
G1 X59.539 Y-80.448
G1 X59.765 Y-79.847
G1 X59.97 Y-79.239
G1 X60.153 Y-78.623
G1 X60.315 Y-78.002
G1 X60.454 Y-77.375
G1 X60.571 Y-76.743
G1 X60.666 Y-76.108
G1 X60.738 Y-75.47
G1 X60.788 Y-74.83
G1 X60.814 Y-74.188
G1 X60.818 Y-73.546
G1 X60.798 Y-72.904
G1 X60.755 Y-72.263
G1 X60.688 Y-71.625
G1 X60.598 Y-70.989
G1 X60.486 Y-70.356
G1 X60.352 Y-69.728
G1 X60.195 Y-69.106
G1 X60.017 Y-68.489
G1 X59.817 Y-67.878
G1 X59.596 Y-67.275
G1 X59.354 Y-66.681
G1 X59.091 Y-66.095
G1 X58.808 Y-65.518
G1 X58.505 Y-64.952
G1 X58.181 Y-64.397
G1 X57.839 Y-63.854
G1 X57.477 Y-63.324
G1 X57.097 Y-62.806
G1 X56.698 Y-62.303
G1 X56.282 Y-61.814
G1 X55.848 Y-61.34
G1 X55.397 Y-60.883
G1 X54.93 Y-60.443
G1 X54.447 Y-60.019
G1 X53.95 Y-59.613
G1 X53.509 Y-59.279
G1 X52.933 Y-58.864
G1 X52.787 Y-58.763
G1 X52.528 Y-58.602
G1 X52.024 Y-58.31
G1 X51.62 Y-58.082
G1 X51.475 Y-58.002
G1 X51.183 Y-57.848
G1 X51.037 Y-57.772
G1 X50.599 Y-57.559
G1 X50.453 Y-57.494
G1 X49.986 Y-57.29
G1 X49.578 Y-57.117
G1 X48.995 Y-56.904
G1 X48.703 Y-56.8
G1 X47.682 Y-56.482
G1 X47.536 Y-56.443
G1 X46.952 Y-56.314
G1 X46.661 Y-56.252
G1 X46.515 Y-56.223
G1 X45.64 Y-56.055
G1 X45.348 Y-56.015
G1 X45.202 Y-55.996
G1 X45.056 Y-55.98
G1 X44.181 Y-55.913
G1 X43.452 Y-55.862
G1 X43.16 Y-55.842
G1 X42.722 Y-55.849
G1 X42.576 Y-55.855
G1 X41.993 Y-55.887
G1 X40.826 Y-55.957
G1 X40.68 Y-55.966
G1 X40.242 Y-56.037
G1 X40.096 Y-56.062
G1 X39.659 Y-56.141
G1 X39.011 Y-56.269
G1 X38.784 Y-56.314
G1 X38.638 Y-56.344
G1 X38.2 Y-56.439
G1 X37.179 Y-56.756
G1 X37.033 Y-56.802
G1 X36.304 Y-57.055
G1 X36.158 Y-57.111
G1 X35.72 Y-57.298
G1 X35.283 Y-57.489
G1 X35.086 Y-57.581
G1 X34.782 Y-57.727
G1 X34.699 Y-57.768
G1 X34.262 Y-57.991
G1 X34.21 Y-58.019
G1 X33.696 Y-58.31
G1 X33.386 Y-58.489
G1 X33.24 Y-58.574
G1 X32.949 Y-58.76
G1 X32.754 Y-58.894
G1 X32.336 Y-59.185
G1 X32.219 Y-59.268
G1 X31.539 Y-59.769
G1 X31.344 Y-59.916
G1 X31.198 Y-60.038
G1 X29.885 Y-61.248
G1 X29.758 Y-61.373
G1 X29.448 Y-61.721
G1 X29.372 Y-61.81
G1 X29.009 Y-62.248
G1 X28.262 Y-63.123
G1 X28.145 Y-63.269
G1 X27.84 Y-63.706
G1 X27.55 Y-64.144
G1 X27.457 Y-64.29
G1 X26.917 Y-65.165
G1 X26.822 Y-65.327
G1 X26.384 Y-66.192
G1 X26.129 Y-66.769
G1 X25.871 Y-67.352
G1 X25.812 Y-67.498
G1 X25.602 Y-68.081
G1 X25.552 Y-68.227
G1 X25.411 Y-68.665
G1 X25.16 Y-69.54
G1 X25.121 Y-69.685
G1 X25.019 Y-70.123
G1 X24.92 Y-70.56
G1 X24.89 Y-70.706
G1 X24.864 Y-70.852
G1 X24.838 Y-70.998
G1 X24.755 Y-71.581
G1 X24.719 Y-71.873
G1 X24.685 Y-72.165
G1 X24.634 Y-72.622
G1 X24.599 Y-73.04
G1 X24.592 Y-73.185
G1 X24.588 Y-74.206
G1 Y-74.935
G1 X24.589 Y-75.081
G1 X24.624 Y-75.519
G1 X24.634 Y-75.623
G1 X24.687 Y-76.102
G1 X24.738 Y-76.54
G1 X24.834 Y-77.269
G1 X24.858 Y-77.415
G1 X24.887 Y-77.56
G1 X25.084 Y-78.435
G1 X25.119 Y-78.581
G1 X25.236 Y-79.019
G1 X25.363 Y-79.481
G1 X25.402 Y-79.602
G1 X25.55 Y-80.04
G1 X25.702 Y-80.477
G1 X25.758 Y-80.623
G1 X25.815 Y-80.769
G1 X25.876 Y-80.915
G1 X26.126 Y-81.498
G1 X26.318 Y-81.936
G1 X26.388 Y-82.081
G1 X26.531 Y-82.373
G1 X26.604 Y-82.519
G1 X26.822 Y-82.936
G1 X27.406 Y-83.905
G1 X27.45 Y-83.977
G1 X27.735 Y-84.415
G1 X27.843 Y-84.577
G1 X28.036 Y-84.852
G1 X28.135 Y-84.989
G1 X28.731 Y-85.727
G1 X28.864 Y-85.891
G1 X29.156 Y-86.238
G1 X29.341 Y-86.456
G1 X29.466 Y-86.602
G1 X29.594 Y-86.738
G1 X30.469 Y-87.56
G1 X30.848 Y-87.915
G1 X31.198 Y-88.234
G1 X31.344 Y-88.355
G1 X32.219 Y-88.999
G1 X32.539 Y-89.227
G1 X32.744 Y-89.373
G1 X32.803 Y-89.413
G1 X33.24 Y-89.696
G1 X33.532 Y-89.866
G1 X33.689 Y-89.956
G1 X33.97 Y-90.115
G1 X34.207 Y-90.248
G1 X34.262 Y-90.278
G1 X34.699 Y-90.506
G1 X34.765 Y-90.54
G1 X35.137 Y-90.716
G1 X35.283 Y-90.784
G1 X35.724 Y-90.977
G1 X36.158 Y-91.158
G1 X36.304 Y-91.214
G1 X36.741 Y-91.371
G1 X37.179 Y-91.519
G1 X37.471 Y-91.611
G1 X38.054 Y-91.791
G1 X38.2 Y-91.836
G1 X38.784 Y-91.959
G1 X39.221 Y-92.05
G1 X40.096 Y-92.217
G1 X40.242 Y-92.24
G1 X40.68 Y-92.295
G1 X41.847 Y-92.377
G1 X42.576 Y-92.427
G1 X42.722 Y-92.43
G1 X43.16 Y-92.421
G1 X43.597 Y-92.397
G1 X44.181 Y-92.361
G1 X45.056 Y-92.303
G1 X45.176 Y-92.29
G1 X45.64 Y-92.211
G1 X46.077 Y-92.133
G1 X46.369 Y-92.075
G1 X46.952 Y-91.955
G1 X47.244 Y-91.895
G1 X47.39 Y-91.864
G1 X47.536 Y-91.828
G1 X47.682 Y-91.787
G1 X48.557 Y-91.516
G1 X48.703 Y-91.467
G1 X48.995 Y-91.366
G1 X49.578 Y-91.16
G1 X50.162 Y-90.907
G1 X50.453 Y-90.779
G1 X50.599 Y-90.714
G1 X51.037 Y-90.499
G1 X51.524 Y-90.248
G1 X51.62 Y-90.195
G1 X52.204 Y-89.86
G1 X52.543 Y-89.665
G1 X52.933 Y-89.405
G1 X53.225 Y-89.2
G1 X53.517 Y-88.993
G1 X54.246 Y-88.457
G1 X54.392 Y-88.345
G1 X54.538 Y-88.228
G1 X55.413 Y-87.421
G1 X55.997 Y-86.877
G1 X56.142 Y-86.718
G1 X56.379 Y-86.456
G1 X56.506 Y-86.311
G1 X56.756 Y-86.019
G1 X56.878 Y-85.873
G1 X57.601 Y-84.985
G1 X57.695 Y-84.852
G1 X57.989 Y-84.415
G1 X58.275 Y-83.977
G1 X58.808 Y-83.102
G1 X58.895 Y-82.956
G1 X58.972 Y-82.811
G1 X59.206 Y-82.348
G1 X59.352 Y-82.057
G1 X59.409 Y-81.936
G1 X59.789 Y-81.06
G1 X59.849 Y-80.915
G1 X59.967 Y-80.623
G1 X60.178 Y-80.04
G1 X60.227 Y-79.886
G1 X60.316 Y-79.602
G1 X60.359 Y-79.456
G1 X60.604 Y-78.581
G1 X60.64 Y-78.435
G1 X60.838 Y-77.56
G1 X60.885 Y-77.269
G1 X60.908 Y-77.123
G1 X60.929 Y-76.977
G1 X60.988 Y-76.54
G1 X61.055 Y-75.956
G1 X61.088 Y-75.665
G1 X61.102 Y-75.517
G1 X61.134 Y-75.081
G1 X61.135 Y-74.206
G1 X61.134 Y-73.185
G1 X61.128 Y-73.04
G1 X61.088 Y-72.602
G1 X61.039 Y-72.165
G1 X60.987 Y-71.727
G1 X60.969 Y-71.581
G1 X60.908 Y-71.144
G1 X60.833 Y-70.706
G1 X60.81 Y-70.587
G1 X60.607 Y-69.685
G1 X60.569 Y-69.54
G1 X60.447 Y-69.102
G1 X60.322 Y-68.665
G1 X59.97 Y-67.644
G1 X59.786 Y-67.206
G1 X59.467 Y-66.477
G1 X59.337 Y-66.185
G1 X59.13 Y-65.748
G1 X59.053 Y-65.602
G1 X58.973 Y-65.456
G1 X58.476 Y-64.597
G1 X58.29 Y-64.29
G1 X58.195 Y-64.144
G1 X57.582 Y-63.269
G1 X57.478 Y-63.123
G1 X57.164 Y-62.728
G1 X56.516 Y-61.956
G1 X56.392 Y-61.81
G1 X56.288 Y-61.699
G1 X55.344 Y-60.79
G1 X55.033 Y-60.498
G1 X54.538 Y-60.038
G1 X54.373 Y-59.915
G1 X53.509 Y-59.279
G3 X53.087 Y-59.341 I-0.177 J-0.264
G1 X53.064 Y-59.391 Z-0.78
G1 X53.042 Y-59.438 Z-0.766
G1 X53.021 Y-59.483 Z-0.743
G1 X53.018 Y-59.514 Z-0.722
G1 X53.015 Y-59.543 Z-0.698
G1 X53.022 Y-59.584 Z-0.65
G1 X53.026 Y-59.615 Z-0.593
G1 X53.029 Y-59.634 Z-0.532
G1 X53.031 Y-59.641 Z-0.468
G0 Z5.
G0 X44.433 Y-27.45
G0 Z3.01
G3 X42.229 Y-26.025 Z2.902 I-1.573 J-0.015 F254.
G3 X41.785 Y-28.609 Z2.793 I0.631 J-1.438
G3 X44.332 Y-28.003 Z2.685 I1.074 J1.144
G3 X42.777 Y-25.901 Z2.576 I-1.472 J0.538
G3 X41.456 Y-28.155 Z2.468 I0.084 J-1.563
G3 X44.044 Y-28.484 Z2.359 I1.403 J0.69
G3 X43.331 Y-25.977 Z2.251 I-1.184 J1.018
G3 X41.309 Y-27.616 Z2.143 I-0.47 J-1.487
G3 X43.607 Y-28.83 Z2.034 I1.55 J0.151
G3 X43.821 Y-26.243 Z1.926 I-0.747 J1.364
G3 X41.361 Y-27.061 Z1.817 I-0.96 J-1.221
G3 X43.077 Y-29. Z1.709 I1.499 J-0.403
G3 X44.185 Y-26.663 Z1.6 I-0.218 J1.534
G3 X41.603 Y-26.562 Z1.492 I-1.324 J-0.802
G3 X42.524 Y-28.973 Z1.384 I1.256 J-0.901
G3 X44.377 Y-27.182 Z1.275 I0.335 J1.507
G3 X42.005 Y-26.182 Z1.167 I-1.516 J-0.283
G3 X42.017 Y-28.753 Z1.058 I0.855 J-1.281
G3 X44.374 Y-27.733 Z0.95 I0.841 J1.288
G3 X42.513 Y-25.969 Z0.841 I-1.513 J0.268
G3 X41.622 Y-28.371 Z0.733 I0.348 J-1.495
G3 X44.178 Y-28.246 Z0.625 I1.237 J0.906
G3 X43.061 Y-25.948 Z0.516 I-1.317 J0.78
G3 X41.388 Y-27.875 Z0.408 I-0.2 J-1.516
G3 X43.814 Y-28.656 Z0.299 I1.471 J0.411
G3 X43.58 Y-26.121 Z0.191 I-0.954 J1.19
G3 X41.343 Y-27.331 Z0.082 I-0.719 J-1.343
G3 X43.332 Y-28.91 Z-0.026 I1.516 J-0.133
G3 X44.002 Y-26.464 Z-0.134 I-0.472 J1.444
G3 X41.493 Y-26.808 Z-0.243 I-1.141 J-1.
G3 X42.793 Y-28.978 Z-0.351 I1.367 J-0.656
G3 X44.276 Y-26.933 Z-0.46 I0.066 J1.512
G3 X41.816 Y-26.373 Z-0.568 I-1.415 J-0.532
G3 X42.267 Y-28.853 Z-0.677 I1.044 J-1.091
G3 X44.367 Y-27.465 Z-0.785 I0.592 J1.387
G3 X41.351 I-1.508 J0.
G3 X44.367 I1.508 J0.
G1 X44.384 Y-26.824 F381.
G1 X44.397 Y-26.744
G1 X44.402 Y-26.594
G1 X44.379 Y-26.446
G1 X44.334 Y-26.303
G1 X44.269 Y-26.168
G1 X44.189 Y-26.041
G1 X44.095 Y-25.924
G1 X43.99 Y-25.817
G1 X43.875 Y-25.721
G1 X43.751 Y-25.636
G1 X43.62 Y-25.563
G1 X43.483 Y-25.501
G1 X43.342 Y-25.451
G1 X43.197 Y-25.413
G1 X43.049 Y-25.386
G1 X42.9 Y-25.371
G1 X42.75 Y-25.368
G1 X42.6 Y-25.376
G1 X42.452 Y-25.395
G1 X42.305 Y-25.426
G1 X42.161 Y-25.467
G1 X42.02 Y-25.519
G1 X41.883 Y-25.581
G1 X41.752 Y-25.653
G1 X41.625 Y-25.734
G1 X41.506 Y-25.824
G1 X41.392 Y-25.923
G1 X41.287 Y-26.029
G1 X41.189 Y-26.143
G1 X41.099 Y-26.263
G1 X41.018 Y-26.389
G1 X40.946 Y-26.521
G1 X40.884 Y-26.658
G1 X40.832 Y-26.798
G1 X40.79 Y-26.942
G1 X40.758 Y-27.089
G1 X40.736 Y-27.237
G1 X40.725 Y-27.387
G1 X40.724 Y-27.537
G1 X40.734 Y-27.686
G1 X40.755 Y-27.835
G1 X40.786 Y-27.982
G1 X40.827 Y-28.126
G1 X40.878 Y-28.267
G1 X40.939 Y-28.404
G1 X41.01 Y-28.536
G1 X41.089 Y-28.663
G1 X41.178 Y-28.785
G1 X41.274 Y-28.899
G1 X41.379 Y-29.007
G1 X41.491 Y-29.107
G1 X41.609 Y-29.199
G1 X41.734 Y-29.283
G1 X41.864 Y-29.357
G1 X41.999 Y-29.422
G1 X42.138 Y-29.478
G1 X42.281 Y-29.523
G1 X42.427 Y-29.559
G1 X42.575 Y-29.584
G1 X42.724 Y-29.599
G1 X42.874 Y-29.603
G1 X43.024 Y-29.597
G1 X43.173 Y-29.58
G1 X43.321 Y-29.552
G1 X43.466 Y-29.515
G1 X43.608 Y-29.467
G1 X43.747 Y-29.41
G1 X43.881 Y-29.343
G1 X44.01 Y-29.267
G1 X44.133 Y-29.181
G1 X44.251 Y-29.088
G1 X44.361 Y-28.986
G1 X44.464 Y-28.877
G1 X44.559 Y-28.761
G1 X44.646 Y-28.639
G1 X44.724 Y-28.511
G1 X44.796 Y-28.371
G1 X44.874 Y-28.192
G1 X44.97 Y-27.927
G1 X45.041 Y-27.682
G1 X45.085 Y-27.485
G1 X45.112 Y-27.311
G1 X45.128 Y-27.14
G1 X45.132 Y-26.987
G1 X45.127 Y-26.833
G1 X45.112 Y-26.684
G1 X45.087 Y-26.536
G1 X45.052 Y-26.39
G1 X45.008 Y-26.247
G1 X44.954 Y-26.107
G1 X44.891 Y-25.971
G1 X44.818 Y-25.84
G1 X44.737 Y-25.714
G1 X44.647 Y-25.593
G1 X44.55 Y-25.48
G1 X44.445 Y-25.372
G1 X44.333 Y-25.272
G1 X44.215 Y-25.179
G1 X44.09 Y-25.093
G1 X43.957 Y-25.014
G1 X43.819 Y-24.943
G1 X43.677 Y-24.881
G1 X43.529 Y-24.828
G1 X43.376 Y-24.783
G1 X43.216 Y-24.748
G1 X43.055 Y-24.723
G1 X42.892 Y-24.708
G1 X42.729 Y-24.704
G1 X42.563 Y-24.71
G1 X42.395 Y-24.728
G1 X42.228 Y-24.756
G1 X42.061 Y-24.795
G1 X41.897 Y-24.844
G1 X41.737 Y-24.905
G1 X41.58 Y-24.975
G1 X41.427 Y-25.056
G1 X41.279 Y-25.147
G1 X41.135 Y-25.248
G1 X40.998 Y-25.359
G1 X40.867 Y-25.479
G1 X40.745 Y-25.606
G1 X40.631 Y-25.742
G1 X40.526 Y-25.884
G1 X40.43 Y-26.032
G1 X40.343 Y-26.188
G1 X40.267 Y-26.349
G1 X40.2 Y-26.515
G1 X40.144 Y-26.686
G1 X40.099 Y-26.861
G1 X40.066 Y-27.038
G1 X40.043 Y-27.217
G1 X40.032 Y-27.396
G1 X40.033 Y-27.576
G1 X40.045 Y-27.754
G1 X40.069 Y-27.932
G1 X40.104 Y-28.109
G1 X40.15 Y-28.283
G1 X40.208 Y-28.455
G1 X40.277 Y-28.623
G1 X40.356 Y-28.786
G1 X40.446 Y-28.944
G1 X40.545 Y-29.096
G1 X40.654 Y-29.24
G1 X40.771 Y-29.377
G1 X40.896 Y-29.506
G1 X41.03 Y-29.627
G1 X41.172 Y-29.739
G1 X41.32 Y-29.842
G1 X41.476 Y-29.936
G1 X41.637 Y-30.019
G1 X41.804 Y-30.093
G1 X41.975 Y-30.155
G1 X42.149 Y-30.206
G1 X42.326 Y-30.246
G1 X42.504 Y-30.275
G1 X42.684 Y-30.292
G1 X42.864 Y-30.297
G1 X43.044 Y-30.291
G1 X43.224 Y-30.273
G1 X43.403 Y-30.244
G1 X43.581 Y-30.204
G1 X43.755 Y-30.152
G1 X43.926 Y-30.088
G1 X44.092 Y-30.015
G1 X44.253 Y-29.93
G1 X44.408 Y-29.837
G1 X44.555 Y-29.733
G1 X44.696 Y-29.621
G1 X44.832 Y-29.497
G1 X44.966 Y-29.359
G1 X45.103 Y-29.197
G1 X45.233 Y-29.023
G1 X45.358 Y-28.831
G1 X45.472 Y-28.628
G1 X45.572 Y-28.42
G1 X45.658 Y-28.207
G1 X45.729 Y-27.995
G1 X45.784 Y-27.784
G1 X45.825 Y-27.574
G1 X45.852 Y-27.366
G1 X45.865 Y-27.161
G1 Y-26.958
G1 X45.852 Y-26.759
G1 X45.827 Y-26.563
G1 X45.79 Y-26.37
G1 X45.741 Y-26.182
G1 X45.68 Y-25.998
G1 X45.608 Y-25.819
G1 X45.524 Y-25.645
G1 X45.429 Y-25.477
G1 X45.324 Y-25.315
G1 X45.208 Y-25.159
G1 X45.082 Y-25.01
G1 X44.946 Y-24.869
G1 X44.801 Y-24.737
G1 X44.646 Y-24.614
G1 X44.483 Y-24.499
G1 X44.312 Y-24.395
G1 X44.133 Y-24.301
G1 X43.948 Y-24.219
G1 X43.756 Y-24.148
G1 X43.559 Y-24.089
G1 X43.357 Y-24.042
G1 X43.151 Y-24.009
G1 X42.942 Y-23.988
G1 X42.731 Y-23.981
G1 X42.518 Y-23.987
G1 X42.306 Y-24.007
G1 X42.094 Y-24.04
G1 X41.884 Y-24.088
G1 X41.676 Y-24.149
G1 X41.471 Y-24.223
G1 X41.27 Y-24.311
G1 X41.075 Y-24.413
G1 X40.886 Y-24.526
G1 X40.704 Y-24.652
G1 X40.531 Y-24.79
G1 X40.366 Y-24.938
G1 X40.21 Y-25.098
G1 X40.065 Y-25.267
G1 X39.93 Y-25.446
G1 X39.807 Y-25.634
G1 X39.696 Y-25.83
G1 X39.597 Y-26.033
G1 X39.511 Y-26.242
G1 X39.439 Y-26.456
G1 X39.381 Y-26.674
G1 X39.337 Y-26.896
G1 X39.307 Y-27.121
G1 X39.291 Y-27.347
G1 X39.29 Y-27.574
G1 X39.303 Y-27.801
G1 X39.331 Y-28.027
G1 X39.374 Y-28.251
G1 X39.431 Y-28.472
G1 X39.501 Y-28.689
G1 X39.586 Y-28.901
G1 X39.684 Y-29.107
G1 X39.795 Y-29.306
G1 X39.918 Y-29.498
G1 X40.053 Y-29.682
G1 X40.2 Y-29.856
G1 X40.358 Y-30.021
G1 X40.527 Y-30.176
G1 X40.705 Y-30.32
G1 X40.892 Y-30.452
G1 X41.087 Y-30.572
G1 X41.289 Y-30.679
G1 X41.498 Y-30.773
G1 X41.712 Y-30.853
G1 X41.93 Y-30.92
G1 X42.153 Y-30.972
G1 X42.378 Y-31.01
G1 X42.606 Y-31.034
G1 X42.835 Y-31.042
G1 X43.064 Y-31.037
G1 X43.292 Y-31.016
G1 X43.519 Y-30.981
G1 X43.742 Y-30.932
G1 X43.962 Y-30.868
G1 X44.178 Y-30.791
G1 X44.388 Y-30.7
G1 X44.593 Y-30.594
G1 X44.795 Y-30.474
G1 X44.992 Y-30.339
G1 X45.183 Y-30.189
G1 X45.368 Y-30.024
G1 X45.547 Y-29.842
G1 X45.717 Y-29.646
G1 X45.876 Y-29.436
G1 X46.023 Y-29.214
G1 X46.155 Y-28.984
G1 X46.273 Y-28.746
G1 X46.374 Y-28.502
G1 X46.459 Y-28.253
G1 X46.527 Y-28.002
G1 X46.578 Y-27.749
G1 X46.613 Y-27.496
G1 X46.632 Y-27.243
G1 X46.634 Y-26.991
G1 X46.62 Y-26.741
G1 X46.591 Y-26.495
G1 X46.546 Y-26.252
G1 X46.486 Y-26.014
G1 X46.411 Y-25.78
G1 X46.321 Y-25.552
G1 X46.217 Y-25.331
G1 X46.099 Y-25.117
G1 X45.968 Y-24.91
G1 X45.823 Y-24.713
G1 X45.666 Y-24.524
G1 X45.496 Y-24.345
G1 X45.315 Y-24.177
G1 X45.123 Y-24.021
G1 X44.92 Y-23.876
G1 X44.708 Y-23.744
G1 X44.486 Y-23.626
G1 X44.256 Y-23.521
G1 X44.019 Y-23.431
G1 X43.775 Y-23.356
G1 X43.526 Y-23.296
G1 X43.272 Y-23.252
G1 X43.015 Y-23.224
G1 X42.755 Y-23.213
G1 X42.494 Y-23.218
G1 X42.232 Y-23.241
G1 X41.972 Y-23.28
G1 X41.713 Y-23.336
G1 X41.457 Y-23.408
G1 X41.206 Y-23.497
G1 X40.96 Y-23.603
G1 X40.721 Y-23.724
G1 X40.489 Y-23.861
G1 X40.265 Y-24.013
G1 X40.052 Y-24.179
G1 X39.849 Y-24.359
G1 X39.657 Y-24.552
G1 X39.478 Y-24.758
G1 X39.311 Y-24.975
G1 X39.159 Y-25.202
G1 X39.021 Y-25.439
G1 X38.899 Y-25.685
G1 X38.793 Y-25.939
G1 X38.702 Y-26.199
G1 X38.629 Y-26.465
G1 X38.573 Y-26.735
G1 X38.534 Y-27.009
G1 X38.512 Y-27.284
G1 X38.509 Y-27.561
G1 X38.523 Y-27.838
G1 X38.554 Y-28.114
G1 X38.604 Y-28.387
G1 X38.671 Y-28.656
G1 X38.754 Y-28.921
G1 X38.855 Y-29.18
G1 X38.972 Y-29.432
G1 X39.105 Y-29.676
G1 X39.254 Y-29.912
G1 X39.417 Y-30.137
G1 X39.594 Y-30.352
G1 X39.785 Y-30.554
G1 X39.989 Y-30.745
G1 X40.204 Y-30.922
G1 X40.43 Y-31.085
G1 X40.666 Y-31.232
G1 X40.911 Y-31.365
G1 X41.165 Y-31.482
G1 X41.425 Y-31.582
G1 X41.691 Y-31.665
G1 X41.962 Y-31.731
G1 X42.236 Y-31.78
G1 X42.514 Y-31.811
G1 X42.792 Y-31.824
G1 X43.071 Y-31.82
G1 X43.349 Y-31.797
G1 X43.626 Y-31.757
G1 X43.899 Y-31.699
G1 X44.169 Y-31.624
G1 X44.436 Y-31.531
G1 X44.697 Y-31.42
G1 X44.954 Y-31.291
G1 X45.205 Y-31.144
G1 X45.45 Y-30.98
G1 X45.686 Y-30.798
G1 X45.913 Y-30.598
G1 X46.128 Y-30.383
G1 X46.331 Y-30.153
G1 X46.52 Y-29.909
G1 X46.693 Y-29.652
G1 X46.85 Y-29.384
G1 X46.99 Y-29.107
G1 X47.111 Y-28.821
G1 X47.213 Y-28.53
G1 X47.297 Y-28.233
G1 X47.361 Y-27.933
G1 X47.405 Y-27.631
G1 X47.43 Y-27.329
G1 X47.435 Y-27.026
G1 X47.421 Y-26.725
G1 X47.388 Y-26.427
G1 X47.336 Y-26.133
G1 X47.266 Y-25.843
G1 X47.177 Y-25.559
G1 X47.071 Y-25.281
G1 X46.947 Y-25.011
G1 X46.806 Y-24.749
G1 X46.648 Y-24.497
G1 X46.474 Y-24.255
G1 X46.285 Y-24.025
G1 X46.082 Y-23.806
G1 X45.864 Y-23.601
G1 X45.633 Y-23.409
G1 X45.389 Y-23.232
G1 X45.134 Y-23.071
G1 X44.868 Y-22.925
G1 X44.592 Y-22.797
G1 X44.308 Y-22.686
G1 X44.016 Y-22.593
G1 X43.718 Y-22.519
G1 X43.414 Y-22.464
G1 X43.106 Y-22.428
G1 X42.795 Y-22.412
G1 X42.483 Y-22.415
G1 X42.171 Y-22.439
G1 X41.859 Y-22.483
G1 X41.55 Y-22.547
G1 X41.245 Y-22.631
G1 X40.945 Y-22.735
G1 X40.651 Y-22.858
G1 X40.365 Y-23.
G1 X40.088 Y-23.16
G1 X39.821 Y-23.338
G1 X39.565 Y-23.534
G1 X39.321 Y-23.745
G1 X39.092 Y-23.973
G1 X38.876 Y-24.215
G1 X38.677 Y-24.471
G1 X38.494 Y-24.74
G1 X38.328 Y-25.02
G1 X38.18 Y-25.311
G1 X38.051 Y-25.611
G1 X37.941 Y-25.919
G1 X37.851 Y-26.234
G1 X37.782 Y-26.554
G1 X37.733 Y-26.878
G1 X37.704 Y-27.205
G1 X37.697 Y-27.534
G1 X37.711 Y-27.863
G1 X37.746 Y-28.19
G1 X37.801 Y-28.514
G1 X37.878 Y-28.835
G1 X37.975 Y-29.15
G1 X38.091 Y-29.458
G1 X38.228 Y-29.758
G1 X38.383 Y-30.049
G1 X38.557 Y-30.33
G1 X38.748 Y-30.599
G1 X38.956 Y-30.856
G1 X39.181 Y-31.098
G1 X39.42 Y-31.326
G1 X39.674 Y-31.538
G1 X39.94 Y-31.734
G1 X40.219 Y-31.912
G1 X40.508 Y-32.071
G1 X40.808 Y-32.212
G1 X41.115 Y-32.334
G1 X41.43 Y-32.436
G1 X41.751 Y-32.517
G1 X42.076 Y-32.577
G1 X42.405 Y-32.617
G1 X42.735 Y-32.636
G1 X43.066 Y-32.633
G1 X43.397 Y-32.609
G1 X43.726 Y-32.564
G1 X44.052 Y-32.498
G1 X44.375 Y-32.411
G1 X44.694 Y-32.303
G1 X45.008 Y-32.173
G1 X45.315 Y-32.022
G1 X45.614 Y-31.851
G1 X45.904 Y-31.659
G1 X46.184 Y-31.448
G1 X46.451 Y-31.217
G1 X46.705 Y-30.968
G1 X46.943 Y-30.702
G1 X47.165 Y-30.42
G1 X47.369 Y-30.123
G1 X47.554 Y-29.814
G1 X47.719 Y-29.493
G1 X47.862 Y-29.163
G1 X47.985 Y-28.825
G1 X48.085 Y-28.48
G1 X48.162 Y-28.131
G1 X48.217 Y-27.778
G1 X48.249 Y-27.424
G1 X48.259 Y-27.069
G1 X48.245 Y-26.715
G1 X48.209 Y-26.364
G1 X48.151 Y-26.017
G1 X48.071 Y-25.674
G1 X47.97 Y-25.338
G1 X47.847 Y-25.009
G1 X47.703 Y-24.689
G1 X47.539 Y-24.379
G1 X47.356 Y-24.08
G1 X47.154 Y-23.793
G1 X46.933 Y-23.519
G1 X46.696 Y-23.26
G1 X46.441 Y-23.016
G1 X46.171 Y-22.788
G1 X45.886 Y-22.577
G1 X45.588 Y-22.385
G1 X45.277 Y-22.211
G1 X44.955 Y-22.058
G1 X44.622 Y-21.925
G1 X44.281 Y-21.813
G1 X43.932 Y-21.723
G1 X43.577 Y-21.655
G1 X43.217 Y-21.61
G1 X42.854 Y-21.588
G1 X42.489 Y-21.589
G1 X42.124 Y-21.614
G1 X41.76 Y-21.662
G1 X41.399 Y-21.733
G1 X41.042 Y-21.828
G1 X40.691 Y-21.946
G1 X40.347 Y-22.086
G1 X40.012 Y-22.249
G1 X39.688 Y-22.433
G1 X39.375 Y-22.637
G1 X39.075 Y-22.862
G1 X38.79 Y-23.106
G1 X38.52 Y-23.369
G1 X38.268 Y-23.648
G1 X38.033 Y-23.944
G1 X37.817 Y-24.254
G1 X37.622 Y-24.578
G1 X37.447 Y-24.915
G1 X37.294 Y-25.262
G1 X37.164 Y-25.619
G1 X37.056 Y-25.984
G1 X36.972 Y-26.355
G1 X36.912 Y-26.731
G1 X36.876 Y-27.111
G1 X36.864 Y-27.493
G1 X36.877 Y-27.874
G1 X36.914 Y-28.255
G1 X36.975 Y-28.632
G1 X37.061 Y-29.005
G1 X37.17 Y-29.372
G1 X37.302 Y-29.731
G1 X37.458 Y-30.081
G1 X37.635 Y-30.421
G1 X37.834 Y-30.749
G1 X38.054 Y-31.063
G1 X38.293 Y-31.363
G1 X38.551 Y-31.647
G1 X38.827 Y-31.914
G1 X39.119 Y-32.163
G1 X39.427 Y-32.392
G1 X39.748 Y-32.602
G1 X40.083 Y-32.791
G1 X40.429 Y-32.957
G1 X40.785 Y-33.102
G1 X41.15 Y-33.223
G1 X41.521 Y-33.32
G1 X41.898 Y-33.394
G1 X42.28 Y-33.444
G1 X42.664 Y-33.468
G1 X43.049 Y-33.469
G1 X43.434 Y-33.444
G1 X43.818 Y-33.395
G1 X44.199 Y-33.322
G1 X44.576 Y-33.223
G1 X44.949 Y-33.1
G1 X45.314 Y-32.953
G1 X45.672 Y-32.781
G1 X46.021 Y-32.585
G1 X46.358 Y-32.367
G1 X46.682 Y-32.126
G1 X46.992 Y-31.863
G1 X47.285 Y-31.58
G1 X47.561 Y-31.277
G1 X47.818 Y-30.956
G1 X48.054 Y-30.619
G1 X48.269 Y-30.267
G1 X48.46 Y-29.902
G1 X48.628 Y-29.526
G1 X48.772 Y-29.139
G1 X48.89 Y-28.745
G1 X48.982 Y-28.345
G1 X49.049 Y-27.94
G1 X49.089 Y-27.533
G1 X49.104 Y-27.124
G1 X49.092 Y-26.716
G1 X49.054 Y-26.311
G1 X48.99 Y-25.909
G1 X48.901 Y-25.513
G1 X48.787 Y-25.123
G1 X48.649 Y-24.742
G1 X48.486 Y-24.371
G1 X48.3 Y-24.011
G1 X48.091 Y-23.663
G1 X47.86 Y-23.329
G1 X47.608 Y-23.011
G1 X47.335 Y-22.708
G1 X47.044 Y-22.424
G1 X46.735 Y-22.158
G1 X46.408 Y-21.912
G1 X46.066 Y-21.687
G1 X45.709 Y-21.484
G1 X45.339 Y-21.304
G1 X44.958 Y-21.147
G1 X44.566 Y-21.015
G1 X44.165 Y-20.908
G1 X43.758 Y-20.827
G1 X43.345 Y-20.771
G1 X42.928 Y-20.742
G1 X42.509 Y-20.74
G1 X42.09 Y-20.765
G1 X41.672 Y-20.817
G1 X41.257 Y-20.895
G1 X40.847 Y-21.
G1 X40.444 Y-21.131
G1 X40.049 Y-21.289
G1 X39.664 Y-21.471
G1 X39.29 Y-21.679
G1 X38.93 Y-21.91
G1 X38.585 Y-22.164
G1 X38.256 Y-22.441
G1 X37.945 Y-22.738
G1 X37.653 Y-23.055
G1 X37.382 Y-23.391
G1 X37.133 Y-23.744
G1 X36.906 Y-24.113
G1 X36.703 Y-24.496
G1 X36.524 Y-24.891
G1 X36.372 Y-25.298
G1 X36.245 Y-25.714
G1 X36.145 Y-26.137
G1 X36.073 Y-26.567
G1 X36.028 Y-27.
G1 X36.01 Y-27.436
G1 X36.021 Y-27.872
G1 X36.06 Y-28.307
G1 X36.126 Y-28.739
G1 X36.22 Y-29.166
G1 X36.341 Y-29.586
G1 X36.489 Y-29.998
G1 X36.663 Y-30.4
G1 X36.863 Y-30.789
G1 X37.087 Y-31.166
G1 X37.334 Y-31.527
G1 X37.605 Y-31.872
G1 X37.897 Y-32.199
G1 X38.209 Y-32.507
G1 X38.54 Y-32.794
G1 X38.89 Y-33.059
G1 X39.255 Y-33.302
G1 X39.635 Y-33.52
G1 X40.029 Y-33.714
G1 X40.434 Y-33.882
G1 X40.849 Y-34.025
G1 X41.273 Y-34.14
G1 X41.703 Y-34.228
G1 X42.138 Y-34.288
G1 X42.577 Y-34.32
G1 X43.017 Y-34.325
G1 X43.458 Y-34.301
G1 X43.897 Y-34.248
G1 X44.334 Y-34.168
G1 X44.766 Y-34.059
G1 X45.192 Y-33.922
G1 X45.61 Y-33.758
G1 X46.019 Y-33.566
G1 X46.417 Y-33.347
G1 X46.802 Y-33.102
G1 X47.173 Y-32.832
G1 X47.526 Y-32.537
G1 X47.862 Y-32.219
G1 X48.177 Y-31.879
G1 X48.471 Y-31.519
G1 X48.741 Y-31.14
G1 X48.987 Y-30.744
G1 X49.207 Y-30.333
G1 X49.401 Y-29.908
G1 X49.567 Y-29.473
G1 X49.705 Y-29.027
G1 X49.813 Y-28.575
G1 X49.893 Y-28.117
G1 X49.943 Y-27.655
G1 X49.963 Y-27.192
G1 X49.954 Y-26.729
G1 X49.915 Y-26.268
G1 X49.846 Y-25.811
G1 X49.749 Y-25.36
G1 X49.623 Y-24.916
G1 X49.469 Y-24.482
G1 X49.288 Y-24.058
G1 X49.08 Y-23.647
G1 X48.846 Y-23.25
G1 X48.587 Y-22.868
G1 X48.304 Y-22.504
G1 X47.997 Y-22.158
G1 X47.669 Y-21.832
G1 X47.321 Y-21.527
G1 X46.952 Y-21.244
G1 X46.566 Y-20.986
G1 X46.164 Y-20.752
G1 X45.746 Y-20.544
G1 X45.315 Y-20.363
G1 X44.872 Y-20.209
G1 X44.42 Y-20.084
G1 X43.959 Y-19.988
G1 X43.492 Y-19.921
G1 X43.021 Y-19.884
G1 X42.547 Y-19.878
G1 X42.072 Y-19.901
G1 X41.599 Y-19.956
G1 X41.13 Y-20.04
G1 X40.665 Y-20.155
G1 X40.208 Y-20.299
G1 X39.761 Y-20.473
G1 X39.324 Y-20.676
G1 X38.901 Y-20.906
G1 X38.492 Y-21.164
G1 X38.1 Y-21.447
G1 X37.726 Y-21.756
G1 X37.373 Y-22.088
G1 X37.041 Y-22.443
G1 X36.731 Y-22.819
G1 X36.446 Y-23.215
G1 X36.187 Y-23.628
G1 X35.955 Y-24.057
G1 X35.75 Y-24.502
G1 X35.574 Y-24.958
G1 X35.427 Y-25.426
G1 X35.31 Y-25.902
G1 X35.224 Y-26.385
G1 X35.169 Y-26.873
G1 X35.146 Y-27.364
G1 X35.153 Y-27.856
G1 X35.193 Y-28.346
G1 X35.263 Y-28.833
G1 X35.365 Y-29.315
G1 X35.498 Y-29.79
G1 X35.66 Y-30.255
G1 X35.852 Y-30.709
G1 X36.073 Y-31.15
G1 X36.322 Y-31.576
G1 X36.597 Y-31.986
G1 X36.898 Y-32.377
G1 X37.224 Y-32.748
G1 X37.573 Y-33.098
G1 X37.943 Y-33.424
G1 X38.334 Y-33.726
G1 X38.743 Y-34.003
G1 X39.169 Y-34.253
G1 X39.611 Y-34.475
G1 X40.065 Y-34.669
G1 X40.532 Y-34.833
G1 X41.008 Y-34.967
G1 X41.492 Y-35.07
G1 X41.981 Y-35.142
G1 X42.475 Y-35.183
G1 X42.972 Y-35.192
G1 X43.468 Y-35.169
G1 X43.964 Y-35.115
G1 X44.456 Y-35.028
G1 X44.944 Y-34.91
G1 X45.424 Y-34.76
G1 X45.896 Y-34.579
G1 X46.358 Y-34.368
G1 X46.806 Y-34.126
G1 X47.241 Y-33.855
G1 X47.658 Y-33.556
G1 X48.057 Y-33.229
G1 X48.435 Y-32.877
G1 X48.791 Y-32.5
G1 X49.123 Y-32.1
G1 X49.429 Y-31.679
G1 X49.708 Y-31.239
G1 X49.958 Y-30.781
G1 X50.178 Y-30.309
G1 X50.368 Y-29.823
G1 X50.527 Y-29.326
G1 X50.653 Y-28.821
G1 X50.746 Y-28.309
G1 X50.806 Y-27.793
G1 X50.834 Y-27.274
G1 X50.828 Y-26.755
G1 X50.788 Y-26.238
G1 X50.716 Y-25.725
G1 X50.612 Y-25.218
G1 X50.475 Y-24.72
G1 X50.306 Y-24.231
G1 X50.107 Y-23.754
G1 X49.878 Y-23.29
G1 X49.619 Y-22.843
G1 X49.332 Y-22.412
G1 X49.018 Y-22.001
G1 X48.678 Y-21.61
G1 X48.313 Y-21.241
G1 X47.925 Y-20.896
G1 X47.516 Y-20.576
G1 X47.085 Y-20.283
G1 X46.637 Y-20.017
G1 X46.171 Y-19.78
G1 X45.69 Y-19.573
G1 X45.196 Y-19.397
G1 X44.691 Y-19.252
G1 X44.177 Y-19.14
G1 X43.655 Y-19.061
G1 X43.129 Y-19.015
G1 X42.599 Y-19.003
G1 X42.069 Y-19.025
G1 X41.54 Y-19.081
G1 X41.014 Y-19.171
G1 X40.495 Y-19.295
G1 X39.983 Y-19.452
G1 X39.482 Y-19.641
G1 X38.993 Y-19.863
G1 X38.518 Y-20.116
G1 X38.06 Y-20.399
G1 X37.62 Y-20.712
G1 X37.2 Y-21.052
G1 X36.803 Y-21.42
G1 X36.429 Y-21.812
G1 X36.081 Y-22.228
G1 X35.759 Y-22.666
G1 X35.466 Y-23.124
G1 X35.203 Y-23.601
G1 X34.97 Y-24.094
G1 X34.77 Y-24.601
G1 X34.602 Y-25.12
G1 X34.467 Y-25.65
G1 X34.367 Y-26.187
G1 X34.301 Y-26.73
G1 X34.27 Y-27.277
G1 X34.274 Y-27.825
G1 X34.313 Y-28.371
G1 X34.387 Y-28.915
G1 X34.495 Y-29.452
G1 X34.638 Y-29.982
G1 X34.815 Y-30.502
G1 X35.024 Y-31.01
G1 X35.266 Y-31.503
G1 X35.539 Y-31.98
G1 X35.842 Y-32.439
G1 X36.173 Y-32.877
G1 X36.532 Y-33.294
G1 X36.917 Y-33.686
G1 X37.327 Y-34.054
G1 X37.759 Y-34.394
G1 X38.212 Y-34.706
G1 X38.684 Y-34.989
G1 X39.174 Y-35.24
G1 X39.678 Y-35.46
G1 X40.196 Y-35.648
G1 X40.725 Y-35.801
G1 X41.263 Y-35.921
G1 X41.808 Y-36.006
G1 X42.358 Y-36.056
G1 X42.911 Y-36.071
G1 X43.465 Y-36.051
G1 X44.017 Y-35.995
G1 X44.566 Y-35.903
G1 X45.11 Y-35.776
G1 X45.646 Y-35.614
G1 X46.173 Y-35.418
G1 X46.687 Y-35.187
G1 X47.188 Y-34.923
G1 X47.672 Y-34.627
G1 X48.138 Y-34.299
G1 X48.583 Y-33.941
G1 X49.006 Y-33.554
G1 X49.404 Y-33.14
G1 X49.775 Y-32.7
G1 X50.118 Y-32.237
G1 X50.43 Y-31.753
G1 X50.712 Y-31.249
G1 X50.96 Y-30.727
G1 X51.175 Y-30.191
G1 X51.355 Y-29.643
G1 X51.5 Y-29.084
G1 X51.608 Y-28.518
G1 X51.68 Y-27.946
G1 X51.715 Y-27.371
G1 X51.714 Y-26.796
G1 X51.675 Y-26.222
G1 X51.6 Y-25.652
G1 X51.489 Y-25.089
G1 X51.342 Y-24.534
G1 X51.16 Y-23.99
G1 X50.943 Y-23.458
G1 X50.693 Y-22.942
G1 X50.41 Y-22.443
G1 X50.096 Y-21.962
G1 X49.751 Y-21.503
G1 X49.378 Y-21.066
G1 X48.977 Y-20.653
G1 X48.55 Y-20.266
G1 X48.098 Y-19.908
G1 X47.624 Y-19.578
G1 X47.129 Y-19.279
G1 X46.615 Y-19.012
G1 X46.084 Y-18.778
G1 X45.539 Y-18.578
G1 X44.981 Y-18.413
G1 X44.412 Y-18.284
G1 X43.835 Y-18.191
G1 X43.253 Y-18.135
G1 X42.666 Y-18.117
G1 X42.079 Y-18.136
G1 X41.494 Y-18.193
G1 X40.912 Y-18.288
G1 X40.336 Y-18.419
G1 X39.769 Y-18.588
G1 X39.213 Y-18.793
G1 X38.67 Y-19.033
G1 X38.143 Y-19.308
G1 X37.634 Y-19.617
G1 X37.145 Y-19.958
G1 X36.678 Y-20.33
G1 X36.236 Y-20.732
G1 X35.819 Y-21.162
G1 X35.43 Y-21.618
G1 X35.071 Y-22.099
G1 X34.743 Y-22.602
G1 X34.448 Y-23.125
G1 X34.187 Y-23.667
G1 X33.96 Y-24.225
G1 X33.77 Y-24.797
G1 X33.616 Y-25.38
G1 X33.5 Y-25.973
G1 X33.422 Y-26.572
G1 X33.383 Y-27.174
G1 X33.382 Y-27.779
G1 X33.42 Y-28.383
G1 X33.496 Y-28.983
G1 X33.611 Y-29.578
G1 X33.763 Y-30.164
G1 X33.953 Y-30.739
G1 X34.18 Y-31.301
G1 X34.442 Y-31.848
G1 X34.738 Y-32.377
G1 X35.068 Y-32.886
G1 X35.43 Y-33.373
G1 X35.822 Y-33.836
G1 X36.243 Y-34.273
G1 X36.691 Y-34.682
G1 X37.165 Y-35.062
G1 X37.662 Y-35.411
G1 X38.18 Y-35.727
G1 X38.718 Y-36.009
G1 X39.273 Y-36.257
G1 X39.843 Y-36.469
G1 X40.425 Y-36.643
G1 X41.018 Y-36.781
G1 X41.619 Y-36.88
G1 X42.225 Y-36.941
G1 X42.835 Y-36.962
G1 X43.447 Y-36.945
G1 X44.057 Y-36.888
G1 X44.663 Y-36.793
G1 X45.264 Y-36.658
G1 X45.857 Y-36.484
G1 X46.439 Y-36.273
G1 X47.008 Y-36.024
G1 X47.561 Y-35.738
G1 X48.097 Y-35.416
G1 X48.612 Y-35.06
G1 X49.105 Y-34.671
G1 X49.573 Y-34.25
G1 X50.014 Y-33.799
G1 X50.426 Y-33.32
G1 X50.807 Y-32.814
G1 X51.155 Y-32.285
G1 X51.469 Y-31.735
G1 X51.747 Y-31.165
G1 X51.988 Y-30.578
G1 X52.191 Y-29.977
G1 X52.355 Y-29.365
G1 X52.479 Y-28.743
G1 X52.564 Y-28.115
G1 X52.608 Y-27.484
G1 X52.612 Y-26.851
G1 X52.575 Y-26.22
G1 X52.498 Y-25.592
G1 X52.381 Y-24.972
G1 X52.224 Y-24.36
G1 X52.029 Y-23.759
G1 X51.796 Y-23.173
G1 X51.525 Y-22.602
G1 X51.219 Y-22.05
G1 X50.878 Y-21.518
G1 X50.503 Y-21.009
G1 X50.096 Y-20.525
G1 X49.659 Y-20.067
G1 X49.193 Y-19.638
G1 X48.7 Y-19.239
G1 X48.182 Y-18.872
G1 X47.641 Y-18.539
G1 X47.078 Y-18.24
G1 X46.497 Y-17.978
G1 X45.9 Y-17.753
G1 X45.288 Y-17.567
G1 X44.665 Y-17.419
G1 X44.032 Y-17.312
G1 X43.394 Y-17.246
G1 X42.752 Y-17.22
G1 X42.11 Y-17.235
G1 X41.47 Y-17.292
G1 X40.835 Y-17.388
G1 X40.208 Y-17.525
G1 X39.591 Y-17.702
G1 X38.986 Y-17.917
G1 X38.395 Y-18.17
G1 X37.822 Y-18.46
G1 X37.269 Y-18.785
G1 X36.736 Y-19.145
G1 X36.228 Y-19.537
G1 X35.745 Y-19.961
G1 X35.29 Y-20.414
G1 X34.864 Y-20.894
G1 X34.469 Y-21.4
G1 X34.106 Y-21.93
G1 X33.778 Y-22.482
G1 X33.484 Y-23.053
G1 X33.226 Y-23.641
G1 X33.005 Y-24.244
G1 X32.823 Y-24.86
G1 X32.679 Y-25.486
G1 X32.574 Y-26.119
G1 X32.509 Y-26.758
G1 X32.483 Y-27.4
G1 X32.498 Y-28.042
G1 X32.552 Y-28.682
G1 X32.646 Y-29.317
G1 X32.779 Y-29.945
G1 X32.95 Y-30.564
G1 X33.16 Y-31.171
G1 X33.406 Y-31.764
G1 X33.689 Y-32.341
G1 X34.007 Y-32.899
G1 X34.359 Y-33.436
G1 X34.743 Y-33.95
G1 X35.159 Y-34.44
G1 X35.604 Y-34.903
G1 X36.076 Y-35.338
G1 X36.575 Y-35.743
G1 X37.098 Y-36.115
G1 X37.643 Y-36.455
G1 X38.208 Y-36.76
G1 X38.791 Y-37.029
G1 X39.39 Y-37.262
G1 X40.001 Y-37.457
G1 X40.624 Y-37.615
G1 X41.255 Y-37.733
G1 X41.893 Y-37.812
G1 X42.533 Y-37.853
G1 X43.176
G1 X43.817 Y-37.814
G1 X44.454 Y-37.736
G1 X45.086 Y-37.62
G1 X45.709 Y-37.465
G1 X46.321 Y-37.272
G1 X46.921 Y-37.043
G1 X47.506 Y-36.778
G1 X48.074 Y-36.478
G1 X48.623 Y-36.145
G1 X49.151 Y-35.779
G1 X49.656 Y-35.383
G1 X50.136 Y-34.956
G1 X50.59 Y-34.501
G1 X51.015 Y-34.02
G1 X51.41 Y-33.514
G1 X51.775 Y-32.985
G1 X52.107 Y-32.436
G1 X52.407 Y-31.868
G1 X52.672 Y-31.283
G1 X52.903 Y-30.684
G1 X53.097 Y-30.072
G1 X53.256 Y-29.449
G1 X53.377 Y-28.819
G1 X53.46 Y-28.182
G1 X53.506 Y-27.542
G1 X53.513 Y-26.899
G1 X53.481 Y-26.258
G1 X53.411 Y-25.62
G1 X53.302 Y-24.987
G1 X53.156 Y-24.361
G1 X52.973 Y-23.746
G1 X52.754 Y-23.142
G1 X52.499 Y-22.553
G1 X52.21 Y-21.979
G1 X51.887 Y-21.424
G1 X51.532 Y-20.889
G1 X51.146 Y-20.376
G1 X50.73 Y-19.887
G1 X50.286 Y-19.423
G1 X49.815 Y-18.986
G1 X49.318 Y-18.579
G1 X48.798 Y-18.202
G1 X48.256 Y-17.858
G1 X47.695 Y-17.546
G1 X47.116 Y-17.267
G1 X46.522 Y-17.024
G1 X45.915 Y-16.815
G1 X45.296 Y-16.643
G1 X44.669 Y-16.507
G1 X44.034 Y-16.407
G1 X43.395 Y-16.345
G1 X42.753 Y-16.32
G1 X42.111 Y-16.333
G1 X41.471 Y-16.385
G1 X40.835 Y-16.474
G1 X40.206 Y-16.601
G1 X39.584 Y-16.764
G1 X38.974 Y-16.963
G1 X38.376 Y-17.196
G1 X37.792 Y-17.464
G1 X37.225 Y-17.765
G1 X36.676 Y-18.098
G1 X36.147 Y-18.462
G1 X35.639 Y-18.856
G1 X35.156 Y-19.278
G1 X34.698 Y-19.728
G1 X34.267 Y-20.205
G1 X33.864 Y-20.705
G1 X33.491 Y-21.228
G1 X33.149 Y-21.771
G1 X32.838 Y-22.333
G1 X32.56 Y-22.912
G1 X32.315 Y-23.505
G1 X32.104 Y-24.112
G1 X31.928 Y-24.73
G1 X31.787 Y-25.356
G1 X31.682 Y-25.99
G1 X31.614 Y-26.628
G1 X31.583 Y-27.27
G1 X31.59 Y-27.912
G1 X31.633 Y-28.553
G1 X31.713 Y-29.19
G1 X31.828 Y-29.822
G1 X31.98 Y-30.446
G1 X32.166 Y-31.06
G1 X32.387 Y-31.663
G1 X32.641 Y-32.253
G1 X32.929 Y-32.827
G1 X33.248 Y-33.384
G1 X33.599 Y-33.922
G1 X33.98 Y-34.439
G1 X34.39 Y-34.933
G1 X34.828 Y-35.403
G1 X35.293 Y-35.846
G1 X35.781 Y-36.263
G1 X36.293 Y-36.651
G1 X36.826 Y-37.01
G1 X37.378 Y-37.337
G1 X37.948 Y-37.633
G1 X38.534 Y-37.897
G1 X39.133 Y-38.126
G1 X39.745 Y-38.322
G1 X40.367 Y-38.482
G1 X40.997 Y-38.605
G1 X41.633 Y-38.692
G1 X42.274 Y-38.743
G1 X42.916 Y-38.758
G1 X43.557 Y-38.736
G1 X44.197 Y-38.679
G1 X44.832 Y-38.585
G1 X45.462 Y-38.457
G1 X46.083 Y-38.294
G1 X46.694 Y-38.096
G1 X47.293 Y-37.865
G1 X47.878 Y-37.601
G1 X48.448 Y-37.304
G1 X49. Y-36.976
G1 X49.533 Y-36.618
G1 X50.045 Y-36.23
G1 X50.534 Y-35.814
G1 X51. Y-35.372
G1 X51.44 Y-34.905
G1 X51.854 Y-34.414
G1 X52.241 Y-33.901
G1 X52.599 Y-33.368
G1 X52.928 Y-32.816
G1 X53.226 Y-32.248
G1 X53.493 Y-31.663
G1 X53.727 Y-31.065
G1 X53.927 Y-30.455
G1 X54.093 Y-29.835
G1 X54.226 Y-29.206
G1 X54.323 Y-28.572
G1 X54.386 Y-27.933
G1 X54.414 Y-27.291
G1 X54.406 Y-26.649
G1 X54.363 Y-26.008
G1 X54.284 Y-25.371
G1 X54.171 Y-24.739
G1 X54.024 Y-24.114
G1 X53.843 Y-23.498
G1 X53.627 Y-22.893
G1 X53.378 Y-22.301
G1 X53.096 Y-21.724
G1 X52.784 Y-21.163
G1 X52.441 Y-20.62
G1 X52.069 Y-20.096
G1 X51.669 Y-19.594
G1 X51.242 Y-19.114
G1 X50.79 Y-18.658
G1 X50.314 Y-18.227
G1 X49.814 Y-17.824
G1 X49.293 Y-17.448
G1 X48.753 Y-17.102
G1 X48.193 Y-16.786
G1 X47.617 Y-16.502
G1 X47.027 Y-16.25
G1 X46.423 Y-16.031
G1 X45.808 Y-15.844
G1 X45.185 Y-15.691
G1 X44.554 Y-15.572
G1 X43.917 Y-15.486
G1 X43.277 Y-15.435
G1 X42.635 Y-15.418
G1 X41.993 Y-15.437
G1 X41.353 Y-15.49
G1 X40.717 Y-15.577
G1 X40.087 Y-15.7
G1 X39.464 Y-15.857
G1 X38.851 Y-16.048
G1 X38.249 Y-16.271
G1 X37.66 Y-16.527
G1 X37.085 Y-16.813
G1 X36.526 Y-17.129
G1 X35.984 Y-17.474
G1 X35.462 Y-17.848
G1 X34.96 Y-18.248
G1 X34.48 Y-18.675
G1 X34.024 Y-19.127
G1 X33.592 Y-19.602
G1 X33.187 Y-20.101
G1 X32.81 Y-20.62
G1 X32.461 Y-21.16
G1 X32.141 Y-21.717
G1 X31.852 Y-22.29
G1 X31.592 Y-22.877
G1 X31.364 Y-23.477
G1 X31.168 Y-24.089
G1 X31.004 Y-24.71
G1 X30.872 Y-25.338
G1 X30.774 Y-25.973
G1 X30.71 Y-26.612
G1 X30.68 Y-27.253
G1 X30.683 Y-27.896
G1 X30.722 Y-28.537
G1 X30.795 Y-29.175
G1 X30.902 Y-29.808
G1 X31.042 Y-30.435
G1 X31.215 Y-31.053
G1 X31.42 Y-31.662
G1 X31.656 Y-32.259
G1 X31.923 Y-32.843
G1 X32.22 Y-33.412
G1 X32.546 Y-33.966
G1 X32.901 Y-34.501
G1 X33.284 Y-35.016
G1 X33.694 Y-35.511
G1 X34.129 Y-35.983
G1 X34.589 Y-36.43
G1 X35.073 Y-36.853
G1 X35.578 Y-37.249
G1 X36.104 Y-37.619
G1 X36.648 Y-37.96
G1 X37.209 Y-38.272
G1 X37.786 Y-38.555
G1 X38.376 Y-38.807
G1 X38.979 Y-39.028
G1 X39.593 Y-39.217
G1 X40.216 Y-39.373
G1 X40.846 Y-39.497
G1 X41.482 Y-39.587
G1 X42.122 Y-39.642
G1 X42.764 Y-39.663
G1 X43.406 Y-39.651
G1 X44.046 Y-39.605
G1 X44.683 Y-39.525
G1 X45.316 Y-39.414
G1 X45.942 Y-39.269
G1 X46.559 Y-39.093
G1 X47.167 Y-38.886
G1 X47.763 Y-38.647
G1 X48.346 Y-38.378
G1 X48.915 Y-38.08
G1 X49.467 Y-37.752
G1 X50.002 Y-37.396
G1 X50.517 Y-37.012
G1 X51.011 Y-36.602
G1 X51.483 Y-36.167
G1 X51.932 Y-35.708
G1 X52.358 Y-35.227
G1 X52.758 Y-34.725
G1 X53.132 Y-34.203
G1 X53.48 Y-33.663
G1 X53.8 Y-33.107
G1 X54.092 Y-32.535
G1 X54.354 Y-31.948
G1 X54.587 Y-31.35
G1 X54.788 Y-30.74
G1 X54.958 Y-30.12
G1 X55.095 Y-29.493
G1 X55.2 Y-28.86
G1 X55.272 Y-28.221
G1 X55.312 Y-27.58
G1 X55.318 Y-26.938
G1 X55.293 Y-26.297
G1 X55.235 Y-25.657
G1 X55.144 Y-25.021
G1 X55.022 Y-24.391
G1 X54.867 Y-23.768
G1 X54.682 Y-23.153
G1 X54.464 Y-22.549
G1 X54.217 Y-21.956
G1 X53.939 Y-21.377
G1 X53.631 Y-20.814
G1 X53.294 Y-20.267
G1 X52.93 Y-19.738
G1 X52.54 Y-19.227
G1 X52.125 Y-18.738
G1 X51.685 Y-18.27
G1 X51.222 Y-17.824
G1 X50.738 Y-17.403
G1 X50.232 Y-17.007
G1 X49.708 Y-16.637
G1 X49.164 Y-16.294
G1 X48.605 Y-15.979
G1 X48.029 Y-15.694
G1 X47.44 Y-15.438
G1 X46.839 Y-15.213
G1 X46.226 Y-15.02
G1 X45.605 Y-14.857
G1 X44.977 Y-14.725
G1 X44.342 Y-14.625
G1 X43.704 Y-14.557
G1 X43.063 Y-14.52
G1 X42.42 Y-14.516
G1 X41.779 Y-14.544
G1 X41.139 Y-14.603
G1 X40.504 Y-14.696
G1 X39.874 Y-14.82
G1 X39.251 Y-14.975
G1 X38.636 Y-15.162
G1 X38.032 Y-15.381
G1 X37.44 Y-15.629
G1 X36.861 Y-15.906
G1 X36.296 Y-16.212
G1 X35.747 Y-16.545
G1 X35.215 Y-16.905
G1 X34.702 Y-17.29
G1 X34.208 Y-17.701
G1 X33.734 Y-18.135
G1 X33.283 Y-18.592
G1 X32.855 Y-19.071
G1 X32.452 Y-19.57
G1 X32.074 Y-20.089
G1 X31.722 Y-20.627
G1 X31.398 Y-21.181
G1 X31.103 Y-21.751
G1 X30.835 Y-22.335
G1 X30.597 Y-22.932
G1 X30.388 Y-23.539
G1 X30.208 Y-24.155
G1 X30.059 Y-24.78
G1 X29.941 Y-25.411
G1 X29.853 Y-26.047
G1 X29.797 Y-26.687
G1 X29.772 Y-27.329
G1 X29.779 Y-27.971
G1 X29.818 Y-28.612
G1 X29.889 Y-29.25
G1 X29.992 Y-29.884
G1 X30.126 Y-30.512
G1 X30.291 Y-31.133
G1 X30.486 Y-31.745
G1 X30.711 Y-32.346
G1 X30.964 Y-32.936
G1 X31.246 Y-33.513
G1 X31.555 Y-34.076
G1 X31.891 Y-34.623
G1 X32.254 Y-35.153
G1 X32.642 Y-35.665
G1 X33.055 Y-36.157
G1 X33.491 Y-36.628
G1 X33.951 Y-37.076
G1 X34.432 Y-37.501
G1 X34.934 Y-37.902
G1 X35.456 Y-38.277
G1 X35.995 Y-38.626
G1 X36.55 Y-38.948
G1 X37.121 Y-39.243
G1 X37.705 Y-39.51
G1 X38.301 Y-39.749
G1 X38.908 Y-39.958
G1 X39.525 Y-40.137
G1 X40.149 Y-40.286
G1 X40.781 Y-40.404
G1 X41.417 Y-40.492
G1 X42.057 Y-40.547
G1 X42.698 Y-40.571
G1 X43.34 Y-40.563
G1 X43.981 Y-40.523
G1 X44.62 Y-40.452
G1 X45.254 Y-40.351
G1 X45.882 Y-40.219
G1 X46.504 Y-40.057
G1 X47.117 Y-39.865
G1 X47.72 Y-39.645
G1 X48.312 Y-39.396
G1 X48.891 Y-39.119
G1 X49.457 Y-38.815
G1 X50.007 Y-38.484
G1 X50.541 Y-38.127
G1 X51.056 Y-37.744
G1 X51.552 Y-37.336
G1 X52.028 Y-36.905
G1 X52.482 Y-36.451
G1 X52.914 Y-35.975
G1 X53.323 Y-35.48
G1 X53.708 Y-34.966
G1 X54.068 Y-34.434
G1 X54.403 Y-33.887
G1 X54.712 Y-33.324
G1 X54.995 Y-32.747
G1 X55.25 Y-32.157
G1 X55.476 Y-31.557
G1 X55.674 Y-30.946
G1 X55.842 Y-30.326
G1 X55.981 Y-29.699
G1 X56.089 Y-29.066
G1 X56.167 Y-28.428
G1 X56.213 Y-27.788
G1 X56.229 Y-27.146
G1 X56.214 Y-26.504
G1 X56.169 Y-25.863
G1 X56.094 Y-25.225
G1 X55.989 Y-24.592
G1 X55.854 Y-23.964
G1 X55.69 Y-23.343
G1 X55.497 Y-22.731
G1 X55.274 Y-22.128
G1 X55.023 Y-21.537
G1 X54.745 Y-20.959
G1 X54.438 Y-20.394
G1 X54.105 Y-19.845
G1 X53.746 Y-19.313
G1 X53.361 Y-18.799
G1 X52.953 Y-18.303
G1 X52.522 Y-17.827
G1 X52.068 Y-17.372
G1 X51.594 Y-16.939
G1 X51.1 Y-16.529
G1 X50.587 Y-16.143
G1 X50.057 Y-15.781
G1 X49.51 Y-15.444
G1 X48.947 Y-15.134
G1 X48.371 Y-14.851
G1 X47.782 Y-14.596
G1 X47.181 Y-14.369
G1 X46.57 Y-14.172
G1 X45.95 Y-14.004
G1 X45.323 Y-13.865
G1 X44.69 Y-13.756
G1 X44.053 Y-13.676
G1 X43.413 Y-13.626
G1 X42.771 Y-13.606
G1 X42.129 Y-13.616
G1 X41.488 Y-13.656
G1 X40.849 Y-13.725
G1 X40.215 Y-13.825
G1 X39.586 Y-13.954
G1 X38.963 Y-14.112
G1 X38.349 Y-14.3
G1 X37.745 Y-14.516
G1 X37.151 Y-14.761
G1 X36.569 Y-15.033
G1 X36.001 Y-15.333
G1 X35.448 Y-15.658
G1 X34.91 Y-16.009
G1 X34.388 Y-16.384
G1 X33.885 Y-16.782
G1 X33.4 Y-17.204
G1 X32.935 Y-17.647
G1 X32.491 Y-18.111
G1 X32.069 Y-18.595
G1 X31.67 Y-19.098
G1 X31.295 Y-19.619
G1 X30.944 Y-20.157
G1 X30.619 Y-20.711
G1 X30.32 Y-21.279
G1 X30.048 Y-21.861
G1 X29.803 Y-22.455
G1 X29.586 Y-23.059
G1 X29.397 Y-23.673
G1 X29.236 Y-24.294
G1 X29.103 Y-24.923
G1 X28.999 Y-25.556
G1 X28.924 Y-26.194
G1 X28.879 Y-26.835
G1 X28.863 Y-27.477
G1 X28.876 Y-28.119
G1 X28.919 Y-28.759
G1 X28.991 Y-29.398
G1 X29.093 Y-30.032
G1 X29.225 Y-30.66
G1 X29.385 Y-31.282
G1 X29.575 Y-31.896
G1 X29.792 Y-32.5
G1 X30.037 Y-33.094
G1 X30.308 Y-33.676
G1 X30.605 Y-34.245
G1 X30.928 Y-34.8
G1 X31.276 Y-35.34
G1 X31.648 Y-35.863
G1 X32.043 Y-36.369
G1 X32.461 Y-36.857
G1 X32.902 Y-37.324
G1 X33.363 Y-37.771
G1 X33.845 Y-38.196
G1 X34.345 Y-38.598
G1 X34.864 Y-38.976
G1 X35.4 Y-39.33
G1 X35.952 Y-39.658
G1 X36.519 Y-39.961
G1 X37.098 Y-40.238
G1 X37.689 Y-40.488
G1 X38.292 Y-40.711
G1 X38.903 Y-40.907
G1 X39.523 Y-41.075
G1 X40.15 Y-41.214
G1 X40.783 Y-41.325
G1 X41.42 Y-41.406
G1 X42.06 Y-41.458
G1 X42.701 Y-41.481
G1 X43.344 Y-41.474
G1 X43.985 Y-41.438
G1 X44.624 Y-41.371
G1 X45.259 Y-41.276
G1 X45.889 Y-41.152
G1 X46.513 Y-40.999
G1 X47.129 Y-40.819
G1 X47.737 Y-40.612
G1 X48.335 Y-40.378
G1 X48.922 Y-40.117
G1 X49.496 Y-39.831
G1 X50.058 Y-39.518
G1 X50.604 Y-39.181
G1 X51.135 Y-38.82
G1 X51.649 Y-38.435
G1 X52.145 Y-38.027
G1 X52.622 Y-37.597
G1 X53.079 Y-37.146
G1 X53.515 Y-36.674
G1 X53.929 Y-36.183
G1 X54.32 Y-35.674
G1 X54.689 Y-35.149
G1 X55.035 Y-34.607
G1 X55.356 Y-34.051
G1 X55.653 Y-33.482
G1 X55.924 Y-32.9
G1 X56.169 Y-32.306
G1 X56.388 Y-31.703
G1 X56.58 Y-31.09
G1 X56.745 Y-30.469
G1 X56.881 Y-29.841
G1 X56.989 Y-29.208
G1 X57.069 Y-28.571
G1 X57.119 Y-27.931
G1 X57.14 Y-27.289
G1 X57.133 Y-26.647
G1 X57.097 Y-26.006
G1 X57.032 Y-25.367
G1 X56.939 Y-24.731
G1 X56.819 Y-24.101
G1 X56.67 Y-23.476
G1 X56.495 Y-22.858
G1 X56.292 Y-22.249
G1 X56.062 Y-21.649
G1 X55.806 Y-21.06
G1 X55.524 Y-20.483
G1 X55.216 Y-19.92
G1 X54.883 Y-19.371
G1 X54.526 Y-18.837
G1 X54.145 Y-18.32
G1 X53.741 Y-17.821
G1 X53.315 Y-17.34
G1 X52.868 Y-16.879
G1 X52.402 Y-16.438
G1 X51.916 Y-16.018
G1 X51.412 Y-15.619
G1 X50.891 Y-15.244
G1 X50.354 Y-14.891
G1 X49.802 Y-14.563
G1 X49.237 Y-14.26
G1 X48.658 Y-13.982
G1 X48.067 Y-13.73
G1 X47.466 Y-13.504
G1 X46.855 Y-13.305
